; generated by Slic3r 1.2.9 on 2015-10-03 at 14:48:19

; external perimeters extrusion width = 0.55mm
; perimeters extrusion width = 0.61mm
; infill extrusion width = 0.60mm
; solid infill extrusion width = 0.60mm
; top infill extrusion width = 0.60mm
; support material extrusion width = 0.70mm

M107 ; disable fan
;start gcode
M80 ;ATX on
M190 S52 ; wait for start bed temperature to be reached
M140 S90 ; set  bed temp to be
M104 S225 ; set temperature
G28 ; home all axes
M190 S90 ; set and wait for bed temp to be reached
M109 S225; wait for extruder temp to be reached
G21 ; set units to millimeters
G90 ; use absolute coordinates
M82 ; use absolute distances for extrusion
G92 E0 ; reset extrusion distance
G1 E-1.10000 F1800.00000 ; retract
G92 E0 ; reset extrusion distance
G1 Z0.500 F7800.000 ; lift Z
G1 Z0.700 F7800.000 ; move to next layer (0)
G1 Z0.900 F7800.000 ; lift Z
G1 X74.284 Y48.069 F7800.000 ; move to first brim point
G1 Z0.700 F7800.000 ; restore layer Z
G1 E1.10000 F1800.00000 ; unretract
M204 S2000 ; adjust acceleration
G1 X74.593 Y47.631 E1.12709 F1200.000 ; brim
G1 X75.057 Y47.092 E1.16307 ; brim
G1 X75.519 Y46.650 E1.19541 ; brim
G1 X75.957 Y46.291 E1.22406 ; brim
G1 X76.568 Y45.879 E1.26132 ; brim
G1 X77.432 Y45.376 E1.31188 ; brim
G1 X78.094 Y45.047 E1.34926 ; brim
G1 X78.631 Y44.841 E1.37833 ; brim
G1 X79.244 Y44.659 E1.41070 ; brim
G1 X79.935 Y44.524 E1.44630 ; brim
G1 X80.821 Y44.455 E1.49126 ; brim
G1 X104.178 Y44.455 E2.67250 ; brim
G1 X104.535 Y44.472 E2.69054 ; brim
G1 X105.066 Y44.524 E2.71753 F1200.000 ; brim
G1 X105.760 Y44.660 E2.75330 ; brim
G1 X106.372 Y44.842 E2.78561 ; brim
G1 X106.904 Y45.046 E2.81440 ; brim
G1 X107.298 Y45.234 E2.83650 ; brim
G1 X108.431 Y45.879 E2.90242 ; brim
G1 X109.042 Y46.290 E2.93968 ; brim
G1 X109.484 Y46.652 E2.96858 ; brim
G1 X109.947 Y47.096 E3.00097 ; brim
G1 X110.408 Y47.632 E3.03677 ; brim
G1 X110.907 Y48.370 E3.08182 ; brim
G1 X112.298 Y50.819 E3.22424 ; brim
G1 X112.554 Y51.323 E3.25283 ; brim
G1 X112.739 Y51.771 E3.27736 ; brim
G1 X112.857 Y52.120 E3.29596 ; brim
G1 X113.139 Y53.187 E3.35179 ; brim
G1 X113.208 Y53.546 E3.37027 ; brim
G1 X113.268 Y54.022 E3.39452 ; brim
G1 X113.295 Y54.590 E3.42332 ; brim
G1 X113.292 Y56.459 E3.51783 ; brim
G1 X113.268 Y56.969 E3.54364 ; brim
G1 X112.000 Y70.356 E4.22371 ; brim
G1 X111.924 Y70.901 E4.25153 ; brim
G1 X111.815 Y71.398 E4.27726 ; brim
G1 X111.645 Y71.974 E4.30763 ; brim
G1 X111.389 Y72.615 E4.34252 ; brim
G1 X111.034 Y73.307 E4.38185 ; brim
G1 X110.553 Y74.023 E4.42550 ; brim
G1 X110.123 Y74.524 E4.45887 ; brim
G1 X109.807 Y74.850 E4.48187 ; brim
G1 X108.777 Y75.787 E4.55228 ; brim
G1 X108.417 Y76.075 E4.57558 ; brim
G1 X107.874 Y76.457 E4.60913 ; brim
G1 X107.114 Y76.868 E4.65285 ; brim
G1 X106.399 Y77.151 E4.69175 ; brim
G1 X105.755 Y77.341 E4.72571 ; brim
G1 X105.169 Y77.457 E4.75591 ; brim
G1 X104.653 Y77.521 E4.78221 ; brim
G1 X104.098 Y77.545 E4.81029 ; brim
G1 X80.902 Y77.545 E5.98338 ; brim
G1 X80.349 Y77.521 E6.01139 ; brim
G1 X79.835 Y77.457 E6.03757 ; brim
G1 X79.247 Y77.341 E6.06791 ; brim
G1 X78.594 Y77.149 E6.10229 ; brim
G1 X77.878 Y76.864 E6.14131 ; brim
G1 X77.120 Y76.453 E6.18486 ; brim
G1 X76.580 Y76.073 E6.21828 ; brim
G1 X76.222 Y75.786 E6.24146 ; brim
G1 X75.192 Y74.849 E6.31189 ; brim
G1 X74.874 Y74.521 E6.33504 ; brim
G1 X74.444 Y74.019 E6.36845 ; brim
G1 X73.964 Y73.303 E6.41203 ; brim
G1 X73.610 Y72.613 E6.45122 ; brim
G1 X73.356 Y71.976 E6.48592 ; brim
G1 X73.186 Y71.403 E6.51618 ; brim
G1 X73.077 Y70.906 E6.54188 ; brim
G1 X73.000 Y70.358 E6.56989 ; brim
G1 X71.873 Y58.460 E7.17429 ; brim
G1 X71.708 Y56.540 E7.27176 ; brim
G1 X71.705 Y54.595 E7.37010 ; brim
G1 X71.731 Y54.034 E7.39850 ; brim
G1 X71.792 Y53.545 E7.42346 ; brim
G1 X71.862 Y53.181 E7.44220 ; brim
G1 X72.143 Y52.120 E7.49771 ; brim
G1 X72.261 Y51.771 E7.51631 ; brim
G1 X72.446 Y51.323 E7.54084 ; brim
G1 X72.601 Y51.009 E7.55857 ; brim
G1 X74.093 Y48.370 E7.71185 ; brim
G1 X74.244 Y48.132 E7.72611 ; brim
M204 S3000 ; adjust acceleration
G1 X75.003 Y48.550 F7800.000 ; move to first brim point
M204 S2000 ; adjust acceleration
G1 X75.275 Y48.163 E7.75003 F1200.000 ; brim
G1 X75.685 Y47.687 E7.78177 ; brim
G1 X76.092 Y47.297 E7.81031 ; brim
G1 X76.479 Y46.980 E7.83559 ; brim
G1 X77.018 Y46.617 E7.86846 ; brim
G1 X77.852 Y46.132 E7.91724 ; brim
G1 X78.436 Y45.842 E7.95022 ; brim
G1 X78.909 Y45.660 E7.97587 ; brim
G1 X79.451 Y45.499 E8.00444 ; brim
G1 X80.060 Y45.380 E8.03585 ; brim
G1 X80.842 Y45.319 E8.07553 ; brim
G1 X104.157 Y45.319 E9.25464 ; brim
G1 X104.941 Y45.380 E9.29437 F1200.000 ; brim
G1 X105.553 Y45.500 E9.32594 ; brim
G1 X106.094 Y45.661 E9.35446 ; brim
G1 X106.562 Y45.841 E9.37986 ; brim
G1 X107.147 Y46.132 E9.41289 ; brim
G1 X108.204 Y46.759 E9.47507 ; brim
G1 X108.521 Y46.980 E9.49456 ; brim
G1 X108.911 Y47.300 E9.52006 ; brim
G1 X109.319 Y47.691 E9.54865 ; brim
G1 X109.726 Y48.164 E9.58024 ; brim
G1 X110.166 Y48.816 E9.61999 ; brim
G1 X111.541 Y51.235 E9.76071 ; brim
G1 X111.766 Y51.680 E9.78595 ; brim
G1 X112.034 Y52.383 E9.82398 ; brim
G1 X112.293 Y53.365 E9.87535 ; brim
G1 X112.407 Y54.101 E9.91304 ; brim
G1 X112.431 Y54.603 E9.93845 ; brim
G1 X112.428 Y56.448 E10.03176 ; brim
G1 X112.407 Y56.898 E10.05453 ; brim
G1 X111.141 Y70.263 E10.73349 ; brim
G1 X111.074 Y70.744 E10.75804 ; brim
G1 X110.977 Y71.183 E10.78074 ; brim
G1 X110.828 Y71.691 E10.80754 ; brim
G1 X110.602 Y72.256 E10.83833 ; brim
G1 X110.288 Y72.867 E10.87304 ; brim
G1 X109.864 Y73.499 E10.91156 ; brim
G1 X109.485 Y73.941 E10.94101 ; brim
G1 X109.205 Y74.229 E10.96130 ; brim
G1 X108.215 Y75.130 E11.02898 ; brim
G1 X107.898 Y75.384 E11.04954 ; brim
G1 X107.419 Y75.721 E11.07916 ; brim
G1 X106.748 Y76.083 E11.11773 ; brim
G1 X106.117 Y76.333 E11.15206 ; brim
G1 X105.548 Y76.501 E11.18203 ; brim
G1 X105.031 Y76.603 E11.20867 ; brim
G1 X104.576 Y76.660 E11.23188 ; brim
G1 X104.086 Y76.681 E11.25667 ; brim
G1 X80.914 Y76.681 E12.42859 ; brim
G1 X80.425 Y76.660 E12.45332 ; brim
G1 X79.972 Y76.603 E12.47642 ; brim
G1 X79.453 Y76.501 E12.50319 ; brim
G1 X78.877 Y76.332 E12.53353 ; brim
G1 X78.245 Y76.080 E12.56796 ; brim
G1 X77.576 Y75.718 E12.60639 ; brim
G1 X77.100 Y75.382 E12.63588 ; brim
G1 X76.784 Y75.129 E12.65634 ; brim
G1 X75.794 Y74.228 E12.72404 ; brim
G1 X75.513 Y73.938 E12.74446 ; brim
G1 X75.133 Y73.495 E12.77395 ; brim
G1 X74.710 Y72.864 E12.81241 ; brim
G1 X74.398 Y72.255 E12.84699 ; brim
G1 X74.173 Y71.693 E12.87761 ; brim
G1 X74.024 Y71.187 E12.90431 ; brim
G1 X73.927 Y70.749 E12.92699 ; brim
G1 X73.859 Y70.265 E12.95172 ; brim
G1 X72.734 Y58.387 E13.55511 ; brim
G1 X72.572 Y56.512 E13.65029 ; brim
G1 X72.569 Y54.608 E13.74658 ; brim
G1 X72.592 Y54.113 E13.77164 ; brim
G1 X72.646 Y53.681 E13.79366 ; brim
G1 X72.708 Y53.360 E13.81020 ; brim
G1 X72.966 Y52.383 E13.86130 ; brim
G1 X73.070 Y52.075 E13.87772 ; brim
G1 X73.371 Y51.402 E13.91499 ; brim
G1 X74.963 Y48.613 E14.07741 ; brim
M204 S3000 ; adjust acceleration
G1 X75.721 Y49.030 F7800.000 ; move to first brim point
M204 S2000 ; adjust acceleration
G1 X75.957 Y48.695 E14.09815 F1200.000 ; brim
G1 X76.312 Y48.283 E14.12566 ; brim
G1 X76.666 Y47.944 E14.15040 ; brim
G1 X77.001 Y47.670 E14.17230 ; brim
G1 X77.468 Y47.355 E14.20080 ; brim
G1 X78.271 Y46.888 E14.24779 ; brim
G1 X78.777 Y46.636 E14.27638 ; brim
G1 X79.188 Y46.478 E14.29860 ; brim
G1 X79.657 Y46.339 E14.32337 ; brim
G1 X80.185 Y46.236 E14.35059 ; brim
G1 X80.863 Y46.183 E14.38499 ; brim
G1 X104.136 Y46.183 E15.56198 ; brim
G1 X104.409 Y46.196 E15.57578 ; brim
G1 X104.815 Y46.236 E15.59643 F1200.000 ; brim
G1 X105.346 Y46.340 E15.62379 ; brim
G1 X105.815 Y46.479 E15.64851 ; brim
G1 X106.221 Y46.636 E15.67053 ; brim
G1 X106.728 Y46.888 E15.69916 ; brim
G1 X107.531 Y47.355 E15.74615 ; brim
G1 X107.999 Y47.670 E15.77465 ; brim
G1 X108.337 Y47.947 E15.79676 ; brim
G1 X108.690 Y48.286 E15.82153 ; brim
G1 X109.043 Y48.696 E15.84891 ; brim
G1 X109.425 Y49.261 E15.88338 ; brim
G1 X110.783 Y51.651 E16.02240 ; brim
G1 X110.979 Y52.037 E16.04427 ; brim
G1 X111.211 Y52.646 E16.07724 ; brim
G1 X111.447 Y53.543 E16.12415 ; brim
G1 X111.546 Y54.181 E16.15682 ; brim
G1 X111.567 Y54.616 E16.17885 ; brim
G1 X111.564 Y56.437 E16.27095 ; brim
G1 X111.545 Y56.827 E16.29069 ; brim
G1 X110.282 Y70.170 E16.96852 ; brim
G1 X110.224 Y70.587 E16.98981 ; brim
G1 X110.140 Y70.967 E17.00948 ; brim
G1 X110.010 Y71.408 E17.03272 ; brim
G1 X109.814 Y71.898 E17.05940 ; brim
G1 X109.543 Y72.427 E17.08949 ; brim
G1 X109.175 Y72.975 E17.12287 ; brim
G1 X108.846 Y73.358 E17.14840 ; brim
G1 X108.604 Y73.608 E17.16599 ; brim
G1 X107.654 Y74.472 E17.23095 ; brim
G1 X107.379 Y74.693 E17.24877 ; brim
G1 X106.963 Y74.984 E17.27444 ; brim
G1 X106.382 Y75.299 E17.30787 ; brim
G1 X105.835 Y75.516 E17.33763 ; brim
G1 X105.342 Y75.661 E17.36360 ; brim
G1 X104.894 Y75.749 E17.38670 ; brim
G1 X104.499 Y75.798 E17.40682 ; brim
G1 X104.075 Y75.817 E17.42831 ; brim
G1 X80.925 Y75.817 E18.59907 ; brim
G1 X80.502 Y75.798 E18.62050 ; brim
G1 X80.109 Y75.750 E18.64052 ; brim
G1 X79.659 Y75.661 E18.66373 ; brim
G1 X79.160 Y75.514 E18.69002 ; brim
G1 X78.612 Y75.295 E18.71987 ; brim
G1 X78.032 Y74.982 E18.75318 ; brim
G1 X77.619 Y74.691 E18.77874 ; brim
G1 X77.346 Y74.472 E18.79647 ; brim
G1 X76.395 Y73.607 E18.86145 ; brim
G1 X76.152 Y73.356 E18.87915 ; brim
G1 X75.823 Y72.972 E18.90471 ; brim
G1 X75.456 Y72.425 E18.93804 ; brim
G1 X75.185 Y71.897 E18.96802 ; brim
G1 X74.991 Y71.410 E18.99456 ; brim
G1 X74.861 Y70.971 E19.01771 ; brim
G1 X74.777 Y70.591 E19.03736 ; brim
G1 X74.718 Y70.172 E19.05880 ; brim
G1 X73.436 Y56.483 E19.75408 ; brim
G1 X73.433 Y54.620 E19.84832 ; brim
G1 X73.453 Y54.191 E19.87005 ; brim
G1 X73.554 Y53.538 E19.90345 ; brim
G1 X73.789 Y52.646 E19.95013 ; brim
G1 X74.021 Y52.037 E19.98310 ; brim
G1 X74.217 Y51.651 E20.00497 ; brim
G1 X75.681 Y49.094 E20.15399 ; brim
M204 S3000 ; adjust acceleration
G1 X76.440 Y49.511 F7800.000 ; move to first brim point
M204 S2000 ; adjust acceleration
G1 X76.640 Y49.227 E20.17155 F1200.000 ; brim
G1 X76.940 Y48.878 E20.19483 ; brim
G1 X77.239 Y48.592 E20.21577 ; brim
G1 X77.523 Y48.360 E20.23430 ; brim
G1 X77.918 Y48.093 E20.25842 ; brim
G1 X78.863 Y47.553 E20.31345 ; brim
G1 X79.119 Y47.431 E20.32781 ; brim
G1 X79.466 Y47.297 E20.34662 ; brim
G1 X79.863 Y47.179 E20.36757 ; brim
G1 X80.310 Y47.092 E20.39061 ; brim
G1 X80.654 Y47.058 E20.40805 ; brim
G1 X104.115 Y47.047 E21.59459 ; brim
G1 X104.690 Y47.092 E21.62375 F1200.000 ; brim
G1 X105.139 Y47.180 E21.64689 ; brim
G1 X105.536 Y47.298 E21.66782 ; brim
G1 X105.880 Y47.430 E21.68645 ; brim
G1 X106.309 Y47.643 E21.71068 ; brim
G1 X107.245 Y48.198 E21.76570 ; brim
G1 X107.763 Y48.594 E21.79868 ; brim
G1 X108.062 Y48.881 E21.81965 ; brim
G1 X108.361 Y49.228 E21.84281 ; brim
G1 X108.684 Y49.706 E21.87199 ; brim
G1 X110.025 Y52.067 E22.00931 ; brim
G1 X110.191 Y52.393 E22.02782 ; brim
G1 X110.387 Y52.909 E22.05572 ; brim
G1 X110.566 Y53.563 E22.09000 ; brim
G1 X110.646 Y53.953 E22.11016 ; brim
G1 X110.685 Y54.261 E22.12585 ; brim
G1 X110.703 Y54.629 E22.14449 ; brim
G1 X110.700 Y56.426 E22.23538 ; brim
G1 X110.684 Y56.756 E22.25209 ; brim
G1 X109.423 Y70.077 E22.92880 ; brim
G1 X109.373 Y70.430 E22.94682 ; brim
G1 X109.193 Y71.125 E22.98312 ; brim
G1 X109.027 Y71.540 E23.00570 ; brim
G1 X108.797 Y71.987 E23.03116 ; brim
G1 X108.486 Y72.451 E23.05941 ; brim
G1 X108.003 Y72.987 E23.09588 ; brim
G1 X107.092 Y73.815 E23.15812 ; brim
G1 X106.860 Y74.001 E23.17320 ; brim
G1 X106.508 Y74.248 E23.19493 ; brim
G1 X106.016 Y74.514 E23.22322 ; brim
G1 X105.553 Y74.698 E23.24840 ; brim
G1 X105.136 Y74.820 E23.27038 ; brim
G1 X104.757 Y74.895 E23.28993 ; brim
G1 X104.423 Y74.937 E23.30695 ; brim
G1 X104.063 Y74.953 E23.32515 ; brim
G1 X80.810 Y74.949 E24.50115 ; brim
G1 X80.246 Y74.896 E24.52981 ; brim
G1 X79.865 Y74.821 E24.54946 ; brim
G1 X79.443 Y74.696 E24.57171 ; brim
G1 X78.979 Y74.511 E24.59697 ; brim
G1 X78.489 Y74.246 E24.62515 ; brim
G1 X77.907 Y73.814 E24.66177 ; brim
G1 X76.997 Y72.986 E24.72403 ; brim
G1 X76.512 Y72.448 E24.76062 ; brim
G1 X76.202 Y71.985 E24.78883 ; brim
G1 X75.973 Y71.539 E24.81420 ; brim
G1 X75.808 Y71.126 E24.83665 ; brim
G1 X75.627 Y70.434 E24.87286 ; brim
G1 X75.578 Y70.078 E24.89101 ; brim
G1 X74.304 Y56.565 E25.57743 ; brim
G1 X74.297 Y54.632 E25.67519 ; brim
G1 X74.314 Y54.269 E25.69358 ; brim
G1 X74.399 Y53.717 E25.72185 ; brim
G1 X74.566 Y53.063 E25.75596 ; brim
G1 X74.689 Y52.683 E25.77616 ; brim
G1 X74.910 Y52.189 E25.80350 ; brim
G1 X76.400 Y49.574 E25.95573 ; brim
M204 S3000 ; adjust acceleration
G1 X77.158 Y49.991 F7800.000 ; move to first brim point
M204 S2000 ; adjust acceleration
G1 X77.322 Y49.759 E25.97011 F1200.000 ; brim
G1 X77.568 Y49.474 E25.98915 ; brim
G1 X78.044 Y49.049 E26.02143 ; brim
G1 X78.368 Y48.831 E26.04118 ; brim
G1 X79.110 Y48.400 E26.08457 ; brim
G1 X79.460 Y48.225 E26.10437 ; brim
G1 X79.745 Y48.116 E26.11976 ; brim
G1 X80.070 Y48.019 E26.13692 ; brim
G1 X80.435 Y47.948 E26.15576 ; brim
G1 X80.717 Y47.920 E26.17005 ; brim
G1 X104.283 Y47.920 E27.36188 ; brim
G1 X104.565 Y47.948 E27.37621 F1200.000 ; brim
G1 X104.932 Y48.020 E27.39515 ; brim
G1 X105.257 Y48.117 E27.41227 ; brim
G1 X105.538 Y48.225 E27.42751 ; brim
G1 X105.889 Y48.399 E27.44734 ; brim
G1 X106.631 Y48.831 E27.49075 ; brim
G1 X106.955 Y49.049 E27.51049 ; brim
G1 X107.434 Y49.476 E27.54294 ; brim
G1 X107.679 Y49.760 E27.56189 ; brim
G1 X107.943 Y50.151 E27.58577 ; brim
G1 X109.268 Y52.483 E27.72139 ; brim
G1 X109.403 Y52.750 E27.73655 ; brim
G1 X109.564 Y53.172 E27.75938 ; brim
G1 X109.726 Y53.769 E27.79069 ; brim
G1 X109.793 Y54.089 E27.80719 ; brim
G1 X109.839 Y54.642 E27.83527 ; brim
G1 X109.823 Y56.685 E27.93861 ; brim
G1 X108.563 Y69.984 E28.61420 ; brim
G1 X108.465 Y70.536 E28.64256 ; brim
G1 X108.375 Y70.842 E28.65866 ; brim
G1 X108.240 Y71.181 E28.67713 ; brim
G1 X108.051 Y71.548 E28.69798 ; brim
G1 X107.797 Y71.927 E28.72109 ; brim
G1 X107.401 Y72.365 E28.75094 ; brim
G1 X106.531 Y73.157 E28.81045 ; brim
G1 X106.053 Y73.512 E28.84056 ; brim
G1 X105.650 Y73.730 E28.86371 ; brim
G1 X105.271 Y73.880 E28.88432 ; brim
G1 X104.930 Y73.980 E28.90231 ; brim
G1 X104.346 Y74.076 E28.93222 ; brim
G1 X104.052 Y74.089 E28.94712 ; brim
G1 X80.845 Y74.086 E30.12079 ; brim
G1 X80.383 Y74.042 E30.14425 ; brim
G1 X80.071 Y73.981 E30.16034 ; brim
G1 X79.725 Y73.879 E30.17854 ; brim
G1 X79.345 Y73.727 E30.19922 ; brim
G1 X78.945 Y73.510 E30.22228 ; brim
G1 X78.469 Y73.157 E30.25225 ; brim
G1 X77.598 Y72.365 E30.31178 ; brim
G1 X77.202 Y71.925 E30.34173 ; brim
G1 X76.948 Y71.546 E30.36480 ; brim
G1 X76.760 Y71.180 E30.38558 ; brim
G1 X76.625 Y70.843 E30.40395 ; brim
G1 X76.477 Y70.276 E30.43358 ; brim
G1 X76.437 Y69.985 E30.44844 ; brim
G1 X75.167 Y56.517 E31.13258 ; brim
G1 X75.161 Y54.645 E31.22728 ; brim
G1 X75.175 Y54.347 E31.24233 ; brim
G1 X75.245 Y53.895 E31.26547 ; brim
G1 X75.436 Y53.172 E31.30331 ; brim
G1 X75.597 Y52.750 E31.32614 ; brim
G1 X75.732 Y52.483 E31.34130 ; brim
G1 X77.118 Y50.055 E31.48267 ; brim
M204 S3000 ; adjust acceleration
G1 X77.877 Y50.472 F7800.000 ; move to first brim point
M204 S2000 ; adjust acceleration
G1 X78.195 Y50.069 E31.50866 F1200.000 ; brim
G1 X78.566 Y49.739 E31.53378 ; brim
G1 X78.818 Y49.569 E31.54914 ; brim
G1 X79.529 Y49.155 E31.59074 ; brim
G1 X79.802 Y49.020 E31.60615 ; brim
G1 X80.276 Y48.860 E31.63145 ; brim
G1 X80.780 Y48.783 E31.65721 ; brim
G1 X104.073 Y48.775 E32.83526 ; brim
G1 X104.440 Y48.804 E32.85384 F1200.000 ; brim
G1 X104.726 Y48.860 E32.86857 ; brim
G1 X104.978 Y48.935 E32.88190 ; brim
G1 X105.360 Y49.097 E32.90286 ; brim
G1 X106.181 Y49.569 E32.95078 ; brim
G1 X106.433 Y49.739 E32.96614 ; brim
G1 X106.806 Y50.071 E32.99138 ; brim
G1 X106.996 Y50.292 E33.00612 ; brim
G1 X107.202 Y50.596 E33.02472 ; brim
G1 X108.616 Y53.107 E33.17042 ; brim
G1 X108.741 Y53.435 E33.18819 ; brim
G1 X108.887 Y53.976 E33.21652 ; brim
G1 X108.939 Y54.224 E33.22937 ; brim
G1 X108.975 Y54.655 E33.25121 ; brim
G1 X108.961 Y56.614 E33.35031 ; brim
G1 X107.704 Y69.891 E34.02478 ; brim
