(.../pcb-gcode-3.6.2.4/pcb-gcode.ulp)
(Copyright 2005 - 2012 by John Johnson)
(See readme.txt for licensing terms.)
(This file generated from the board:)
(.../Documents/eagle/blink2/rev1.brd)
(Current profile is .../pcb-gcode-3.6.2.4/profiles/mach.pp  )
(This file generated 2015-02-25 13:49:33)
(Settings from pcb-machine.h)
(spindle on time = 3.0000)
(spindle speed = 10000.0000)
(milling depth = -1.0000)
(tool change at 0.0000  0.0000  25.4000 )
(feed rate xy = F500   )
(feed rate z  = F127   )
(Z Axis Settings)
(  High     Up        Down     Drill)
(12.7000 	2.5400  	-0.2000 	-2.0000 )
(Settings from pcb-defaults.h)
(isolate min = 0.0000)
(isolate max = 1.0000)
(isolate step = 0.6000)
(Generated bottom outlines, bottom drill, )
(Unit of measure: mm)
(Metric Mode)
G21
(Absolute Coordinates)
G90
S10000
G00 Z12.7000 
G00 X0.0000  Y0.0000  
M03
G04 P3.000000
G00 Z2.5400  
G00 X2.5400  Y0.0000  
G01 Z-1.0000 F127   
G01 X2.5400  Y67.3100 F500   
G01 X-26.6700 Y67.3100 
G01 X-26.6700 Y0.0000  
G01 X2.5400  Y0.0000  
G00 Z12.7000 
M05
M02
