(.../pcb-gcode-3.6.2.4/pcb-gcode.ulp)
(Copyright 2005 - 2012 by John Johnson)
(See readme.txt for licensing terms.)
(This file generated from the board:)
(.../Documents/eagle/blink2/rev1.brd)
(Current profile is .../pcb-gcode-3.6.2.4/profiles/mach.pp  )
(This file generated 2015-02-25 13:49:31)
(Settings from pcb-machine.h)
(spindle on time = 3.0000)
(  Tool Size)
(0.8000  )
(spindle speed = 10000.0000)
(tool change at 0.0000  0.0000  25.4000 )
(feed rate xy = F400   )
(feed rate z  = F254   )
(Z Axis Settings)
(  High     Up        Down     Drill)
(12.7000 	2.5400  	-0.2000 	-2.0000 )
(Settings from pcb-defaults.h)
(isolate min = 0.0000)
(isolate max = 1.0000)
(isolate step = 0.6000)
(Generated bottom outlines, bottom drill, )
(Unit of measure: mm)
(Metric Mode)
G21
(Absolute Coordinates)
G90
S10000
G00 Z12.7000 
G00 X0.0000  Y0.0000  
M03
G04 P3.000000
G00 Z2.5400  
G00 X-0.6261 Y12.0134 
G01 Z-0.2000 F254   
G01 X-0.7434 Y11.8961 F400   
G01 X-0.8776 Y11.7985 
G01 X-1.0254 Y11.7232 
G01 X-1.1832 Y11.6720 
G01 X-1.3470 Y11.6460 
G01 X-1.5130 Y11.6460 
G01 X-1.6768 Y11.6720 
G01 X-1.8346 Y11.7232 
G01 X-1.9824 Y11.7985 
G01 X-2.1166 Y11.8961 
G01 X-2.2339 Y12.0134 
G01 X-2.3315 Y12.1476 
G01 X-2.4068 Y12.2954 
G01 X-2.4580 Y12.4532 
G01 X-2.4840 Y12.6170 
G01 X-2.4840 Y12.7829 
G01 X-2.4580 Y12.9468 
G01 X-2.4068 Y13.1046 
G01 X-2.3315 Y13.2524 
G01 X-2.2339 Y13.3866 
G01 X-2.2300 Y13.3906 
G01 X-2.2300 Y19.6038 
G01 X-2.1993 Y19.7584 
G01 X-2.1389 Y19.9039 
G01 X-2.0764 Y19.9976 
G01 X-2.0764 Y56.3436 
G01 X-5.1778 Y56.3436 
G01 X-7.4486 Y54.0728 
G01 X-7.4486 Y53.1977 
G01 X-7.4772 Y53.0171 
G01 X-7.5337 Y52.8431 
G01 X-7.6168 Y52.6802 
G01 X-7.7243 Y52.5322 
G01 X-7.8042 Y52.4523 
G01 X-7.8042 Y49.1477 
G01 X-7.7243 Y49.0678 
G01 X-7.6168 Y48.9198 
G01 X-7.5337 Y48.7569 
G01 X-7.4772 Y48.5829 
G01 X-7.4486 Y48.4023 
G01 X-7.4486 Y46.6953 
G01 X-7.4772 Y46.5147 
G01 X-7.5337 Y46.3407 
G01 X-7.6168 Y46.1778 
G01 X-7.7243 Y46.0298 
G01 X-7.8536 Y45.9005 
G01 X-8.0016 Y45.7930 
G01 X-8.1645 Y45.7099 
G01 X-8.3385 Y45.6534 
G01 X-8.5191 Y45.6248 
G01 X-8.7020 Y45.6248 
G01 X-8.8827 Y45.6534 
G01 X-9.0567 Y45.7099 
G01 X-9.2196 Y45.7930 
G01 X-9.2233 Y45.7957 
G01 X-13.1636 Y41.8554 
G01 X-13.1636 Y35.2346 
G01 X-13.0256 Y35.0966 
G01 X-12.9110 Y34.9390 
G01 X-12.8225 Y34.7653 
G01 X-12.7623 Y34.5799 
G01 X-12.7318 Y34.3874 
G01 X-12.7318 Y34.1925 
G01 X-12.7623 Y34.0001 
G01 X-12.8225 Y33.8147 
G01 X-12.9110 Y33.6410 
G01 X-13.0256 Y33.4834 
G01 X-13.1634 Y33.3456 
G01 X-13.3210 Y33.2310 
G01 X-13.4947 Y33.1425 
G01 X-13.6801 Y33.0823 
G01 X-13.8726 Y33.0518 
G01 X-14.0674 Y33.0518 
G01 X-14.2599 Y33.0823 
G01 X-14.4453 Y33.1425 
G01 X-14.6190 Y33.2310 
G01 X-14.7766 Y33.3456 
G01 X-14.9144 Y33.4834 
G01 X-15.0290 Y33.6410 
G01 X-15.1175 Y33.8147 
G01 X-15.1777 Y34.0001 
G01 X-15.2082 Y34.1925 
G01 X-15.2082 Y34.3874 
G01 X-15.1777 Y34.5799 
G01 X-15.1175 Y34.7653 
G01 X-15.0290 Y34.9390 
G01 X-14.9144 Y35.0966 
G01 X-14.7766 Y35.2344 
G01 X-14.7764 Y42.2688 
G01 X-14.7454 Y42.4246 
G01 X-14.6846 Y42.5714 
G01 X-14.5964 Y42.7034 
G01 X-9.7726 Y47.5272 
G01 X-9.7726 Y48.4023 
G01 X-9.7440 Y48.5829 
G01 X-9.6875 Y48.7569 
G01 X-9.6044 Y48.9198 
G01 X-9.4969 Y49.0678 
G01 X-9.4170 Y49.1477 
G01 X-9.4170 Y52.4523 
G01 X-9.4969 Y52.5322 
G01 X-9.6044 Y52.6802 
G01 X-9.6875 Y52.8431 
G01 X-9.7440 Y53.0171 
G01 X-9.7726 Y53.1977 
G01 X-9.7726 Y54.9046 
G01 X-9.7440 Y55.0853 
G01 X-9.6875 Y55.2593 
G01 X-9.6044 Y55.4222 
G01 X-9.4969 Y55.5702 
G01 X-9.3676 Y55.6995 
G01 X-9.2196 Y55.8070 
G01 X-9.0567 Y55.8901 
G01 X-8.8827 Y55.9466 
G01 X-8.7020 Y55.9752 
G01 X-8.5191 Y55.9752 
G01 X-8.3385 Y55.9466 
G01 X-8.1645 Y55.8901 
G01 X-8.0016 Y55.8070 
G01 X-7.9979 Y55.8043 
G01 X-6.4363 Y57.3659 
G01 X-8.9143 Y59.8439 
G01 X-9.0565 Y59.7017 
G01 X-9.2302 Y59.5685 
G01 X-9.4198 Y59.4590 
G01 X-9.6220 Y59.3752 
G01 X-9.8335 Y59.3186 
G01 X-10.0505 Y59.2900 
G01 X-10.2695 Y59.2900 
G01 X-10.4865 Y59.3186 
G01 X-10.6980 Y59.3752 
G01 X-10.9002 Y59.4590 
G01 X-11.0898 Y59.5685 
G01 X-11.2635 Y59.7017 
G01 X-11.4183 Y59.8565 
G01 X-11.5515 Y60.0302 
G01 X-11.6610 Y60.2198 
G01 X-11.7448 Y60.4220 
G01 X-11.8014 Y60.6335 
G01 X-11.8300 Y60.8505 
G01 X-11.8300 Y61.0695 
G01 X-11.8014 Y61.2865 
G01 X-11.7448 Y61.4980 
G01 X-11.6610 Y61.7002 
G01 X-11.5515 Y61.8898 
G01 X-11.4183 Y62.0635 
G01 X-11.2635 Y62.2183 
G01 X-11.0898 Y62.3515 
G01 X-10.9002 Y62.4610 
G01 X-10.6980 Y62.5448 
G01 X-10.4865 Y62.6014 
G01 X-10.2695 Y62.6300 
G01 X-10.0505 Y62.6300 
G01 X-9.8335 Y62.6014 
G01 X-9.6220 Y62.5448 
G01 X-9.4198 Y62.4610 
G01 X-9.2302 Y62.3515 
G01 X-9.0565 Y62.2183 
G01 X-8.9017 Y62.0635 
G01 X-8.7685 Y61.8898 
G01 X-8.6825 Y61.7409 
G01 X-8.6548 Y61.7354 
G01 X-8.5080 Y61.6746 
G01 X-8.3759 Y61.5864 
G01 X-4.7460 Y57.9564 
G01 X-1.1906 Y57.9564 
G01 X-1.0348 Y57.9254 
G01 X-0.8880 Y57.8646 
G01 X-0.7560 Y57.7764 
G01 X-0.6436 Y57.6640 
G01 X-0.5554 Y57.5320 
G01 X-0.4946 Y57.3852 
G01 X-0.4636 Y57.2294 
G01 X-0.4636 Y19.6056 
G01 X-0.4946 Y19.4498 
G01 X-0.5554 Y19.3030 
G01 X-0.6300 Y19.1913 
G01 X-0.6300 Y13.3906 
G01 X-0.6261 Y13.3866 
G01 X-0.5285 Y13.2524 
G01 X-0.4532 Y13.1046 
G01 X-0.4020 Y12.9468 
G01 X-0.3760 Y12.7829 
G01 X-0.3760 Y12.6170 
G01 X-0.4020 Y12.4532 
G01 X-0.4532 Y12.2954 
G01 X-0.5285 Y12.1476 
G01 X-0.6261 Y12.0134 
G00 Z2.5400  
G00 X-20.3760 Y11.9933 
G01 Z-0.2000 F254   
G01 X-20.4033 Y11.8916 F400   
G01 X-20.4559 Y11.8004 
G01 X-20.5304 Y11.7259 
G01 X-20.6216 Y11.6733 
G01 X-20.7233 Y11.6460 
G01 X-22.1367 Y11.6460 
G01 X-22.2384 Y11.6733 
G01 X-22.3296 Y11.7259 
G01 X-22.4041 Y11.8004 
G01 X-22.4567 Y11.8916 
G01 X-22.4840 Y11.9933 
G01 X-22.4840 Y13.4067 
G01 X-22.4567 Y13.5084 
G01 X-22.4041 Y13.5996 
G01 X-22.3964 Y13.6073 
G01 X-22.3964 Y25.7254 
G01 X-22.5344 Y25.8634 
G01 X-22.6490 Y26.0210 
G01 X-22.7375 Y26.1947 
G01 X-22.7977 Y26.3801 
G01 X-22.8282 Y26.5725 
G01 X-22.8282 Y26.7674 
G01 X-22.8269 Y26.7755 
G01 X-24.4339 Y28.3825 
G01 X-24.5214 Y28.5136 
G01 X-24.5818 Y28.6591 
G01 X-24.6125 Y28.8137 
G01 X-24.6125 Y48.9738 
G01 X-24.5818 Y49.1283 
G01 X-24.5214 Y49.2739 
G01 X-24.4339 Y49.4050 
G01 X-24.3225 Y49.5164 
G01 X-20.2998 Y53.5391 
G01 X-20.2944 Y53.5468 
G01 X-20.2441 Y53.5948 
G01 X-20.2425 Y54.5427 
G01 X-20.2152 Y54.6444 
G01 X-20.1626 Y54.7356 
G01 X-20.0881 Y54.8101 
G01 X-19.9969 Y54.8627 
G01 X-19.8952 Y54.8900 
G01 X-18.7898 Y54.8900 
G01 X-18.6881 Y54.8627 
G01 X-18.5969 Y54.8101 
G01 X-18.5612 Y54.7744 
G01 X-18.5256 Y54.8101 
G01 X-18.4344 Y54.8627 
G01 X-18.3327 Y54.8900 
G01 X-17.2273 Y54.8900 
G01 X-17.1256 Y54.8627 
G01 X-17.0344 Y54.8101 
G01 X-16.9988 Y54.7744 
G01 X-16.9631 Y54.8101 
G01 X-16.8719 Y54.8627 
G01 X-16.7702 Y54.8900 
G01 X-16.1004 Y54.8900 
G01 X-16.0464 Y54.9440 
G01 X-16.0464 Y59.4047 
G01 X-16.9100 Y60.2683 
G01 X-16.9100 Y61.6517 
G01 X-15.9317 Y62.6300 
G01 X-14.5483 Y62.6300 
G01 X-13.5700 Y61.6517 
G01 X-13.5700 Y60.2683 
G01 X-14.4336 Y59.4047 
G01 X-14.4336 Y54.5306 
G01 X-14.4646 Y54.3748 
G01 X-14.5254 Y54.2280 
G01 X-14.6136 Y54.0960 
G01 X-14.7259 Y53.9836 
G01 X-15.3175 Y53.3921 
G01 X-15.3175 Y51.9373 
G01 X-15.3448 Y51.8356 
G01 X-15.3974 Y51.7444 
G01 X-15.4719 Y51.6699 
G01 X-15.5631 Y51.6173 
G01 X-15.6648 Y51.5900 
G01 X-16.7702 Y51.5900 
G01 X-16.8719 Y51.6173 
G01 X-16.9631 Y51.6699 
G01 X-16.9988 Y51.7056 
G01 X-17.0344 Y51.6699 
G01 X-17.1256 Y51.6173 
G01 X-17.2273 Y51.5900 
G01 X-18.3327 Y51.5900 
G01 X-18.4344 Y51.6173 
G01 X-18.5256 Y51.6699 
G01 X-18.5612 Y51.7056 
G01 X-18.5969 Y51.6699 
G01 X-18.6881 Y51.6173 
G01 X-18.7898 Y51.5900 
G01 X-19.8952 Y51.5900 
G01 X-19.9669 Y51.6092 
G01 X-23.0125 Y48.5636 
G01 X-23.0125 Y29.2239 
G01 X-21.6955 Y27.9069 
G01 X-21.6874 Y27.9082 
G01 X-21.4926 Y27.9082 
G01 X-21.3001 Y27.8777 
G01 X-21.1147 Y27.8175 
G01 X-20.9410 Y27.7290 
G01 X-20.7834 Y27.6144 
G01 X-20.6456 Y27.4766 
G01 X-20.5310 Y27.3190 
G01 X-20.4425 Y27.1453 
G01 X-20.3823 Y26.9599 
G01 X-20.3518 Y26.7674 
G01 X-20.3518 Y26.5725 
G01 X-20.3823 Y26.3801 
G01 X-20.4425 Y26.1947 
G01 X-20.5310 Y26.0210 
G01 X-20.6456 Y25.8634 
G01 X-20.7834 Y25.7256 
G01 X-20.7836 Y23.6664 
G01 X-11.7640 Y23.6664 
G01 X-8.6804 Y26.7500 
G01 X-8.6804 Y27.1092 
G01 X-8.0592 Y27.7304 
G01 X-7.1808 Y27.7304 
G01 X-6.5596 Y27.1092 
G01 X-6.5596 Y26.2308 
G01 X-7.1808 Y25.6096 
G01 X-7.5400 Y25.6096 
G01 X-10.8036 Y22.3460 
G01 X-10.9160 Y22.2336 
G01 X-11.0480 Y22.1454 
G01 X-11.1948 Y22.0846 
G01 X-11.3506 Y22.0536 
G01 X-20.7836 Y22.0536 
G01 X-20.7836 Y13.7540 
G01 X-20.7233 Y13.7540 
G01 X-20.6216 Y13.7267 
G01 X-20.5304 Y13.6741 
G01 X-20.4559 Y13.5996 
G01 X-20.4033 Y13.5084 
G01 X-20.3760 Y13.4067 
G01 X-20.3760 Y11.9933 
G00 Z2.5400  
G00 X-19.8566 Y25.7256 
G01 Z-0.2000 F254   
G01 X-19.9944 Y25.8634 F400   
G01 X-20.1090 Y26.0210 
G01 X-20.1975 Y26.1947 
G01 X-20.2577 Y26.3801 
G01 X-20.2882 Y26.5725 
G01 X-20.2882 Y26.7674 
G01 X-20.2577 Y26.9599 
G01 X-20.1975 Y27.1453 
G01 X-20.1090 Y27.3190 
G01 X-19.9944 Y27.4766 
G01 X-19.8566 Y27.6144 
G01 X-19.6990 Y27.7290 
G01 X-19.5253 Y27.8175 
G01 X-19.3399 Y27.8777 
G01 X-19.1474 Y27.9082 
G01 X-18.9525 Y27.9082 
G01 X-18.7601 Y27.8777 
G01 X-18.5747 Y27.8175 
G01 X-18.4010 Y27.7290 
G01 X-18.2434 Y27.6144 
G01 X-18.1056 Y27.4766 
G01 X-17.9910 Y27.3190 
G01 X-17.9025 Y27.1453 
G01 X-17.8423 Y26.9599 
G01 X-17.8118 Y26.7674 
G01 X-17.8118 Y26.5725 
G01 X-17.8423 Y26.3801 
G01 X-17.9025 Y26.1947 
G01 X-17.9910 Y26.0210 
G01 X-18.1056 Y25.8634 
G01 X-18.2434 Y25.7256 
G01 X-18.4010 Y25.6110 
G01 X-18.5747 Y25.5225 
G01 X-18.7601 Y25.4623 
G01 X-18.9525 Y25.4318 
G01 X-19.1474 Y25.4318 
G01 X-19.3399 Y25.4623 
G01 X-19.5253 Y25.5225 
G01 X-19.6990 Y25.6110 
G01 X-19.8566 Y25.7256 
G00 Z2.5400  
G00 X-17.3166 Y25.7256 
G01 Z-0.2000 F254   
G01 X-17.4544 Y25.8634 F400   
G01 X-17.5690 Y26.0210 
G01 X-17.6575 Y26.1947 
G01 X-17.7177 Y26.3801 
G01 X-17.7482 Y26.5725 
G01 X-17.7482 Y26.7674 
G01 X-17.7177 Y26.9599 
G01 X-17.6575 Y27.1453 
G01 X-17.5690 Y27.3190 
G01 X-17.4544 Y27.4766 
G01 X-17.3166 Y27.6144 
G01 X-17.3164 Y29.2894 
G01 X-17.2854 Y29.4452 
G01 X-17.2246 Y29.5920 
G01 X-17.1364 Y29.7240 
G01 X-15.8664 Y30.9940 
G01 X-15.7540 Y31.1064 
G01 X-15.6220 Y31.1946 
G01 X-15.4752 Y31.2554 
G01 X-15.3194 Y31.2864 
G01 X-11.7640 Y31.2864 
G01 X-8.4264 Y34.6240 
G01 X-8.4264 Y41.2168 
G01 X-8.6804 Y41.4708 
G01 X-8.6804 Y42.3492 
G01 X-8.0592 Y42.9704 
G01 X-7.7000 Y42.9704 
G01 X-4.8958 Y45.7746 
G01 X-4.8958 Y45.9499 
G01 X-4.9757 Y46.0298 
G01 X-5.0832 Y46.1778 
G01 X-5.1663 Y46.3407 
G01 X-5.2228 Y46.5147 
G01 X-5.2514 Y46.6953 
G01 X-5.2514 Y48.4023 
G01 X-5.2228 Y48.5829 
G01 X-5.1663 Y48.7569 
G01 X-5.0832 Y48.9198 
G01 X-4.9757 Y49.0678 
G01 X-4.8958 Y49.1477 
G01 X-4.8958 Y52.4523 
G01 X-4.9757 Y52.5322 
G01 X-5.0832 Y52.6802 
G01 X-5.1663 Y52.8431 
G01 X-5.2228 Y53.0171 
G01 X-5.2514 Y53.1977 
G01 X-5.2514 Y54.9046 
G01 X-5.2228 Y55.0853 
G01 X-5.1663 Y55.2593 
G01 X-5.0832 Y55.4222 
G01 X-4.9757 Y55.5702 
G01 X-4.8464 Y55.6995 
G01 X-4.6984 Y55.8070 
G01 X-4.5355 Y55.8901 
G01 X-4.3615 Y55.9466 
G01 X-4.1809 Y55.9752 
G01 X-3.9979 Y55.9752 
G01 X-3.8173 Y55.9466 
G01 X-3.6433 Y55.8901 
G01 X-3.4804 Y55.8070 
G01 X-3.3324 Y55.6995 
G01 X-3.2031 Y55.5702 
G01 X-3.0956 Y55.4222 
G01 X-3.0125 Y55.2593 
G01 X-2.9560 Y55.0853 
G01 X-2.9274 Y54.9046 
G01 X-2.9274 Y53.1977 
G01 X-2.9560 Y53.0171 
G01 X-3.0125 Y52.8431 
G01 X-3.0956 Y52.6802 
G01 X-3.2031 Y52.5322 
G01 X-3.2830 Y52.4523 
G01 X-3.2830 Y49.1477 
G01 X-3.2031 Y49.0678 
G01 X-3.0956 Y48.9198 
G01 X-3.0125 Y48.7569 
G01 X-2.9560 Y48.5829 
G01 X-2.9274 Y48.4023 
G01 X-2.9274 Y46.6953 
G01 X-2.9560 Y46.5147 
G01 X-3.0125 Y46.3407 
G01 X-3.0956 Y46.1778 
G01 X-3.2031 Y46.0298 
G01 X-3.2830 Y45.9499 
G01 X-3.2830 Y45.3612 
G01 X-3.3140 Y45.2054 
G01 X-3.3748 Y45.0586 
G01 X-3.4630 Y44.9265 
G01 X-3.5753 Y44.8142 
G01 X-6.5596 Y41.8300 
G01 X-6.5596 Y41.4708 
G01 X-6.8136 Y41.2168 
G01 X-6.8136 Y34.2106 
G01 X-6.8446 Y34.0548 
G01 X-6.9054 Y33.9080 
G01 X-6.9936 Y33.7760 
G01 X-7.1059 Y33.6636 
G01 X-10.9160 Y29.8536 
G01 X-11.0480 Y29.7654 
G01 X-11.1948 Y29.7046 
G01 X-11.3506 Y29.6736 
G01 X-14.9060 Y29.6736 
G01 X-15.7036 Y28.8760 
G01 X-15.7036 Y27.6146 
G01 X-15.5656 Y27.4766 
G01 X-15.4510 Y27.3190 
G01 X-15.3625 Y27.1453 
G01 X-15.3023 Y26.9599 
G01 X-15.2718 Y26.7674 
G01 X-15.2718 Y26.5725 
G01 X-15.3023 Y26.3801 
G01 X-15.3625 Y26.1947 
G01 X-15.4510 Y26.0210 
G01 X-15.5656 Y25.8634 
G01 X-15.7034 Y25.7256 
G01 X-15.8610 Y25.6110 
G01 X-16.0347 Y25.5225 
G01 X-16.2201 Y25.4623 
G01 X-16.4125 Y25.4318 
G01 X-16.6074 Y25.4318 
G01 X-16.7999 Y25.4623 
G01 X-16.9853 Y25.5225 
G01 X-17.1590 Y25.6110 
G01 X-17.3166 Y25.7256 
G00 Z2.5400  
G00 X-15.2082 Y25.7791 
G01 Z-0.2000 F254   
G01 X-15.2082 Y27.5609 F400   
G01 X-15.1809 Y27.6626 
G01 X-15.1283 Y27.7538 
G01 X-15.0538 Y27.8283 
G01 X-14.9626 Y27.8809 
G01 X-14.8609 Y27.9082 
G01 X-13.0791 Y27.9082 
G01 X-12.9774 Y27.8809 
G01 X-12.8862 Y27.8283 
G01 X-12.8117 Y27.7538 
G01 X-12.7591 Y27.6626 
G01 X-12.7318 Y27.5609 
G01 X-12.7318 Y25.7791 
G01 X-12.7591 Y25.6774 
G01 X-12.8117 Y25.5862 
G01 X-12.8862 Y25.5117 
G01 X-12.9774 Y25.4591 
G01 X-13.0791 Y25.4318 
G01 X-14.8609 Y25.4318 
G01 X-14.9626 Y25.4591 
G01 X-15.0538 Y25.5117 
G01 X-15.1283 Y25.5862 
G01 X-15.1809 Y25.6774 
G01 X-15.2082 Y25.7791 
G00 Z2.5400  
G00 X-15.5656 Y33.4834 
G01 Z-0.2000 F254   
G01 X-15.7034 Y33.3456 F400   
G01 X-15.8610 Y33.2310 
G01 X-16.0347 Y33.1425 
G01 X-16.2201 Y33.0823 
G01 X-16.4125 Y33.0518 
G01 X-16.6074 Y33.0518 
G01 X-16.7999 Y33.0823 
G01 X-16.9853 Y33.1425 
G01 X-17.1590 Y33.2310 
G01 X-17.3166 Y33.3456 
G01 X-17.4544 Y33.4834 
G01 X-17.5690 Y33.6410 
G01 X-17.6575 Y33.8147 
G01 X-17.7177 Y34.0001 
G01 X-17.7482 Y34.1925 
G01 X-17.7482 Y34.3874 
G01 X-17.7177 Y34.5799 
G01 X-17.6575 Y34.7653 
G01 X-17.5690 Y34.9390 
G01 X-17.4544 Y35.0966 
G01 X-17.3166 Y35.2344 
G01 X-17.2730 Y35.2662 
G01 X-17.1174 Y38.6953 
G01 X-18.0398 Y35.0061 
G01 X-17.9910 Y34.9390 
G01 X-17.9025 Y34.7653 
G01 X-17.8423 Y34.5799 
G01 X-17.8118 Y34.3874 
G01 X-17.8118 Y34.1925 
G01 X-17.8423 Y34.0001 
G01 X-17.9025 Y33.8147 
G01 X-17.9910 Y33.6410 
G01 X-18.1056 Y33.4834 
G01 X-18.2434 Y33.3456 
G01 X-18.4010 Y33.2310 
G01 X-18.5747 Y33.1425 
G01 X-18.7601 Y33.0823 
G01 X-18.9525 Y33.0518 
G01 X-19.1474 Y33.0518 
G01 X-19.3399 Y33.0823 
G01 X-19.5253 Y33.1425 
G01 X-19.6990 Y33.2310 
G01 X-19.8566 Y33.3456 
G01 X-19.9944 Y33.4834 
G01 X-20.1090 Y33.6410 
G01 X-20.1975 Y33.8147 
G01 X-20.2577 Y34.0001 
G01 X-20.2882 Y34.1925 
G01 X-20.2882 Y34.3874 
G01 X-20.2577 Y34.5799 
G01 X-20.1975 Y34.7653 
G01 X-20.1090 Y34.9390 
G01 X-19.9944 Y35.0966 
G01 X-19.8566 Y35.2344 
G01 X-19.6990 Y35.3490 
G01 X-19.6044 Y35.3972 
G01 X-18.6721 Y39.1265 
G01 X-18.6881 Y39.1173 
G01 X-18.7898 Y39.0900 
G01 X-19.8521 Y39.0900 
G01 X-20.7836 Y38.1585 
G01 X-20.7836 Y35.2346 
G01 X-20.6456 Y35.0966 
G01 X-20.5310 Y34.9390 
G01 X-20.4425 Y34.7653 
G01 X-20.3823 Y34.5799 
G01 X-20.3518 Y34.3874 
G01 X-20.3518 Y34.1925 
G01 X-20.3823 Y34.0001 
G01 X-20.4425 Y33.8147 
G01 X-20.5310 Y33.6410 
G01 X-20.6456 Y33.4834 
G01 X-20.7834 Y33.3456 
G01 X-20.9410 Y33.2310 
G01 X-21.1147 Y33.1425 
G01 X-21.3001 Y33.0823 
G01 X-21.4926 Y33.0518 
G01 X-21.6874 Y33.0518 
G01 X-21.8799 Y33.0823 
G01 X-22.0653 Y33.1425 
G01 X-22.2390 Y33.2310 
G01 X-22.3966 Y33.3456 
G01 X-22.5344 Y33.4834 
G01 X-22.6490 Y33.6410 
G01 X-22.7375 Y33.8147 
G01 X-22.7977 Y34.0001 
G01 X-22.8282 Y34.1925 
G01 X-22.8282 Y34.3874 
G01 X-22.7977 Y34.5799 
G01 X-22.7375 Y34.7653 
G01 X-22.6490 Y34.9390 
G01 X-22.5344 Y35.0966 
G01 X-22.3966 Y35.2344 
G01 X-22.3964 Y38.5719 
G01 X-22.3654 Y38.7277 
G01 X-22.3046 Y38.8745 
G01 X-22.2164 Y39.0065 
G01 X-20.2425 Y40.9804 
G01 X-20.2425 Y42.0427 
G01 X-20.2152 Y42.1444 
G01 X-20.1626 Y42.2356 
G01 X-20.0881 Y42.3101 
G01 X-19.9969 Y42.3627 
G01 X-19.8952 Y42.3900 
G01 X-18.7898 Y42.3900 
G01 X-18.6881 Y42.3627 
G01 X-18.5969 Y42.3101 
G01 X-18.5612 Y42.2744 
G01 X-18.5256 Y42.3101 
G01 X-18.4344 Y42.3627 
G01 X-18.3327 Y42.3900 
G01 X-17.2273 Y42.3900 
G01 X-17.1256 Y42.3627 
G01 X-17.0344 Y42.3101 
G01 X-16.9988 Y42.2744 
G01 X-16.9631 Y42.3101 
G01 X-16.8719 Y42.3627 
G01 X-16.7702 Y42.3900 
G01 X-15.6648 Y42.3900 
G01 X-15.5631 Y42.3627 
G01 X-15.4719 Y42.3101 
G01 X-15.3974 Y42.2356 
G01 X-15.3448 Y42.1444 
G01 X-15.3175 Y42.0427 
G01 X-15.3175 Y39.4373 
G01 X-15.3448 Y39.3356 
G01 X-15.3974 Y39.2444 
G01 X-15.4719 Y39.1699 
G01 X-15.4817 Y39.1642 
G01 X-15.6618 Y35.1929 
G01 X-15.5656 Y35.0966 
G01 X-15.4510 Y34.9390 
G01 X-15.3625 Y34.7653 
G01 X-15.3023 Y34.5799 
G01 X-15.2718 Y34.3874 
G01 X-15.2718 Y34.1925 
G01 X-15.3023 Y34.0001 
G01 X-15.3625 Y33.8147 
G01 X-15.4510 Y33.6410 
G01 X-15.5656 Y33.4834 
G00 Z2.5400  
G00 X-15.5800 Y43.1795 
G01 Z-0.2000 F254   
G01 X-15.9522 Y42.9876 F400   
G01 X-16.3409 Y42.8320 
G01 X-16.7427 Y42.7140 
G01 X-17.1538 Y42.6348 
G01 X-17.5706 Y42.5950 
G01 X-17.9894 Y42.5950 
G01 X-18.4062 Y42.6348 
G01 X-18.8173 Y42.7140 
G01 X-19.2191 Y42.8320 
G01 X-19.6078 Y42.9876 
G01 X-19.9800 Y43.1795 
G01 X-20.3322 Y43.4059 
G01 X-20.6614 Y43.6647 
G01 X-20.9644 Y43.9537 
G01 X-21.2386 Y44.2701 
G01 X-21.4815 Y44.6112 
G01 X-21.6909 Y44.9738 
G01 X-21.8648 Y45.3547 
G01 X-22.0018 Y45.7504 
G01 X-22.1005 Y46.1573 
G01 X-22.1601 Y46.5718 
G01 X-22.1800 Y46.9900 
G01 X-22.1601 Y47.4082 
G01 X-22.1005 Y47.8227 
G01 X-22.0018 Y48.2296 
G01 X-21.8648 Y48.6253 
G01 X-21.6909 Y49.0062 
G01 X-21.4815 Y49.3688 
G01 X-21.2386 Y49.7099 
G01 X-20.9644 Y50.0263 
G01 X-20.6614 Y50.3153 
G01 X-20.3322 Y50.5741 
G01 X-19.9800 Y50.8005 
G01 X-19.6078 Y50.9924 
G01 X-19.2191 Y51.1480 
G01 X-18.8173 Y51.2660 
G01 X-18.4062 Y51.3452 
G01 X-17.9894 Y51.3850 
G01 X-17.5706 Y51.3850 
G01 X-17.1538 Y51.3452 
G01 X-16.7427 Y51.2660 
G01 X-16.3409 Y51.1480 
G01 X-15.9522 Y50.9924 
G01 X-15.5800 Y50.8005 
G01 X-15.2277 Y50.5741 
G01 X-14.8986 Y50.3153 
G01 X-14.5956 Y50.0263 
G01 X-14.3214 Y49.7099 
G01 X-14.0785 Y49.3688 
G01 X-13.8691 Y49.0062 
G01 X-13.6952 Y48.6253 
G01 X-13.5582 Y48.2296 
G01 X-13.4595 Y47.8227 
G01 X-13.3999 Y47.4082 
G01 X-13.3800 Y46.9900 
G01 X-13.3999 Y46.5718 
G01 X-13.4595 Y46.1573 
G01 X-13.5582 Y45.7504 
G01 X-13.6952 Y45.3547 
G01 X-13.8691 Y44.9738 
G01 X-14.0785 Y44.6112 
G01 X-14.3214 Y44.2701 
G01 X-14.5956 Y43.9537 
G01 X-14.8986 Y43.6647 
G01 X-15.2277 Y43.4059 
G01 X-15.5800 Y43.1795 
G00 Z2.5400  
G00 X-0.1838 Y11.6071 
G01 Z-0.2000 F254   
G01 X-0.3371 Y11.4538 F400   
G01 X-0.5091 Y11.3218 
G01 X-0.6969 Y11.2134 
G01 X-0.8972 Y11.1304 
G01 X-1.1066 Y11.0743 
G01 X-1.3216 Y11.0460 
G01 X-1.5384 Y11.0460 
G01 X-1.7534 Y11.0743 
G01 X-1.9628 Y11.1304 
G01 X-2.1631 Y11.2134 
G01 X-2.3509 Y11.3218 
G01 X-2.5229 Y11.4538 
G01 X-2.6762 Y11.6071 
G01 X-2.8082 Y11.7791 
G01 X-2.9166 Y11.9669 
G01 X-2.9996 Y12.1672 
G01 X-3.0557 Y12.3766 
G01 X-3.0840 Y12.5916 
G01 X-3.0840 Y12.8084 
G01 X-3.0557 Y13.0234 
G01 X-2.9996 Y13.2328 
G01 X-2.9166 Y13.4331 
G01 X-2.8300 Y13.5831 
G01 X-2.8300 Y19.6352 
G01 X-2.7955 Y19.8528 
G01 X-2.7274 Y20.0624 
G01 X-2.6764 Y20.1626 
G01 X-2.6764 Y45.7339 
G01 X-2.6830 Y45.7253 
G01 X-2.6830 Y45.3299 
G01 X-2.7176 Y45.1113 
G01 X-2.7860 Y44.9007 
G01 X-2.8865 Y44.7035 
G01 X-3.0167 Y44.5244 
G01 X-3.1732 Y44.3679 
G01 X-5.9596 Y41.5814 
G01 X-5.9596 Y41.2222 
G01 X-6.2136 Y40.9682 
G01 X-6.2136 Y34.1793 
G01 X-6.2482 Y33.9607 
G01 X-6.3166 Y33.7501 
G01 X-6.4171 Y33.5529 
G01 X-6.5473 Y33.3738 
G01 X-6.7038 Y33.2173 
G01 X-10.5138 Y29.4073 
G01 X-10.6929 Y29.2771 
G01 X-10.8901 Y29.1766 
G01 X-11.1007 Y29.1082 
G01 X-11.3193 Y29.0736 
G01 X-14.6574 Y29.0736 
G01 X-15.1036 Y28.6274 
G01 X-15.1036 Y28.4682 
G01 X-15.0999 Y28.4698 
G01 X-14.9067 Y28.5082 
G01 X-13.0333 Y28.5082 
G01 X-12.8401 Y28.4698 
G01 X-12.6581 Y28.3944 
G01 X-12.4943 Y28.2849 
G01 X-12.3551 Y28.1457 
G01 X-12.2456 Y27.9819 
G01 X-12.1702 Y27.7999 
G01 X-12.1318 Y27.6067 
G01 X-12.1318 Y25.7333 
G01 X-12.1702 Y25.5401 
G01 X-12.2456 Y25.3581 
G01 X-12.3551 Y25.1943 
G01 X-12.4943 Y25.0551 
G01 X-12.6581 Y24.9456 
G01 X-12.8401 Y24.8702 
G01 X-13.0333 Y24.8318 
G01 X-14.9067 Y24.8318 
G01 X-15.0999 Y24.8702 
G01 X-15.2819 Y24.9456 
G01 X-15.4457 Y25.0551 
G01 X-15.5134 Y25.1228 
G01 X-15.6952 Y25.0178 
G01 X-15.9179 Y24.9256 
G01 X-16.1506 Y24.8633 
G01 X-16.3895 Y24.8318 
G01 X-16.6305 Y24.8318 
G01 X-16.8694 Y24.8633 
G01 X-17.1021 Y24.9256 
G01 X-17.3248 Y25.0178 
G01 X-17.5334 Y25.1383 
G01 X-17.7246 Y25.2850 
G01 X-17.7800 Y25.3404 
G01 X-17.8354 Y25.2850 
G01 X-18.0266 Y25.1383 
G01 X-18.2352 Y25.0178 
G01 X-18.4579 Y24.9256 
G01 X-18.6906 Y24.8633 
G01 X-18.9295 Y24.8318 
G01 X-19.1705 Y24.8318 
G01 X-19.4094 Y24.8633 
G01 X-19.6421 Y24.9256 
G01 X-19.8648 Y25.0178 
G01 X-20.0734 Y25.1383 
G01 X-20.1836 Y25.2228 
G01 X-20.1836 Y24.2664 
G01 X-12.0125 Y24.2664 
G01 X-9.2804 Y26.9986 
G01 X-9.2804 Y27.3578 
G01 X-8.3078 Y28.3304 
G01 X-6.9322 Y28.3304 
G01 X-5.9596 Y27.3578 
G01 X-5.9596 Y25.9822 
G01 X-6.9322 Y25.0096 
G01 X-7.2914 Y25.0096 
G01 X-10.3573 Y21.9438 
G01 X-10.5138 Y21.7873 
G01 X-10.6929 Y21.6571 
G01 X-10.8901 Y21.5566 
G01 X-11.1007 Y21.4882 
G01 X-11.3193 Y21.4536 
G01 X-20.1836 Y21.4536 
G01 X-20.1836 Y14.1609 
G01 X-20.1385 Y14.1307 
G01 X-19.9992 Y13.9915 
G01 X-19.8898 Y13.8277 
G01 X-19.8144 Y13.6457 
G01 X-19.7760 Y13.4525 
G01 X-19.7760 Y11.9475 
G01 X-19.8144 Y11.7543 
G01 X-19.8898 Y11.5723 
G01 X-19.9992 Y11.4085 
G01 X-20.1385 Y11.2692 
G01 X-20.3023 Y11.1598 
G01 X-20.4843 Y11.0844 
G01 X-20.6775 Y11.0460 
G01 X-22.1825 Y11.0460 
G01 X-22.3757 Y11.0844 
G01 X-22.5577 Y11.1598 
G01 X-22.7215 Y11.2692 
G01 X-22.8607 Y11.4085 
G01 X-22.9702 Y11.5723 
G01 X-23.0456 Y11.7543 
G01 X-23.0840 Y11.9475 
G01 X-23.0840 Y13.4525 
G01 X-23.0456 Y13.6457 
G01 X-22.9964 Y13.7644 
G01 X-22.9964 Y25.4833 
G01 X-23.1217 Y25.6466 
G01 X-23.2422 Y25.8552 
G01 X-23.3344 Y26.0779 
G01 X-23.3967 Y26.3106 
G01 X-23.4250 Y26.5251 
G01 X-24.8804 Y27.9805 
G01 X-25.0099 Y28.1587 
G01 X-25.1099 Y28.3551 
G01 X-25.1780 Y28.5647 
G01 X-25.2125 Y28.7823 
G01 X-25.2125 Y49.0052 
G01 X-25.1780 Y49.2228 
G01 X-25.1099 Y49.4324 
G01 X-25.0099 Y49.6288 
G01 X-24.8804 Y49.8070 
G01 X-24.7245 Y49.9629 
G01 X-20.8425 Y53.8449 
G01 X-20.8425 Y54.5885 
G01 X-20.8041 Y54.7817 
G01 X-20.7287 Y54.9637 
G01 X-20.6192 Y55.1275 
G01 X-20.4800 Y55.2667 
G01 X-20.3162 Y55.3762 
G01 X-20.1342 Y55.4516 
G01 X-19.9410 Y55.4900 
G01 X-18.7440 Y55.4900 
G01 X-18.5612 Y55.4536 
G01 X-18.3785 Y55.4900 
G01 X-17.1815 Y55.4900 
G01 X-16.9988 Y55.4536 
G01 X-16.8160 Y55.4900 
G01 X-16.6464 Y55.4900 
G01 X-16.6464 Y59.1561 
G01 X-17.5100 Y60.0197 
G01 X-17.5100 Y61.9003 
G01 X-16.1803 Y63.2300 
G01 X-14.2997 Y63.2300 
G01 X-12.9700 Y61.9003 
G01 X-12.9700 Y60.0197 
G01 X-13.8336 Y59.1561 
G01 X-13.8336 Y54.4993 
G01 X-13.8682 Y54.2807 
G01 X-13.9366 Y54.0701 
G01 X-14.0371 Y53.8729 
G01 X-14.1673 Y53.6938 
G01 X-14.3238 Y53.5373 
G01 X-14.7175 Y53.1435 
G01 X-14.7175 Y51.8915 
G01 X-14.7559 Y51.6983 
G01 X-14.8313 Y51.5163 
G01 X-14.9407 Y51.3525 
G01 X-15.0800 Y51.2133 
G01 X-15.0954 Y51.2030 
G01 X-14.9678 Y51.1242 
G01 X-14.6134 Y50.8594 
G01 X-14.2838 Y50.5644 
G01 X-13.9816 Y50.2414 
G01 X-13.7091 Y49.8930 
G01 X-13.4684 Y49.5219 
G01 X-13.2615 Y49.1309 
G01 X-13.0900 Y48.7232 
G01 X-12.9552 Y48.3019 
G01 X-12.8581 Y47.8703 
G01 X-12.7996 Y47.4319 
G01 X-12.7800 Y46.9900 
G01 X-12.7996 Y46.5481 
G01 X-12.8581 Y46.1097 
G01 X-12.9552 Y45.6781 
G01 X-13.0900 Y45.2568 
G01 X-13.2341 Y44.9142 
G01 X-10.3726 Y47.7758 
G01 X-10.3726 Y48.4263 
G01 X-10.3424 Y48.6553 
G01 X-10.2827 Y48.8784 
G01 X-10.1943 Y49.0918 
G01 X-10.0788 Y49.2918 
G01 X-10.0170 Y49.3723 
G01 X-10.0170 Y52.2277 
G01 X-10.0788 Y52.3082 
G01 X-10.1943 Y52.5082 
G01 X-10.2827 Y52.7216 
G01 X-10.3424 Y52.9447 
G01 X-10.3726 Y53.1737 
G01 X-10.3726 Y54.9287 
G01 X-10.3424 Y55.1577 
G01 X-10.2827 Y55.3808 
G01 X-10.1943 Y55.5942 
G01 X-10.0788 Y55.7942 
G01 X-9.9382 Y55.9775 
G01 X-9.7749 Y56.1408 
G01 X-9.5916 Y56.2814 
G01 X-9.3916 Y56.3969 
G01 X-9.1782 Y56.4853 
G01 X-8.9551 Y56.5451 
G01 X-8.7261 Y56.5752 
G01 X-8.4951 Y56.5752 
G01 X-8.2661 Y56.5451 
G01 X-8.1396 Y56.5111 
G01 X-7.2848 Y57.3659 
G01 X-8.9540 Y59.0351 
G01 X-9.1539 Y58.9197 
G01 X-9.4288 Y58.8059 
G01 X-9.7162 Y58.7288 
G01 X-10.0112 Y58.6900 
G01 X-10.3088 Y58.6900 
G01 X-10.6038 Y58.7288 
G01 X-10.8912 Y58.8059 
G01 X-11.1661 Y58.9197 
G01 X-11.4238 Y59.0685 
G01 X-11.6599 Y59.2497 
G01 X-11.8703 Y59.4601 
G01 X-12.0515 Y59.6961 
G01 X-12.2003 Y59.9539 
G01 X-12.3141 Y60.2288 
G01 X-12.3912 Y60.5162 
G01 X-12.4300 Y60.8112 
G01 X-12.4300 Y61.1088 
G01 X-12.3912 Y61.4038 
G01 X-12.3141 Y61.6912 
G01 X-12.2003 Y61.9661 
G01 X-12.0515 Y62.2238 
G01 X-11.8703 Y62.4599 
G01 X-11.6599 Y62.6703 
G01 X-11.4238 Y62.8515 
G01 X-11.1661 Y63.0003 
G01 X-10.8912 Y63.1141 
G01 X-10.6038 Y63.1912 
G01 X-10.3088 Y63.2300 
G01 X-10.0112 Y63.2300 
G01 X-9.7162 Y63.1912 
G01 X-9.4288 Y63.1141 
G01 X-9.1539 Y63.0003 
G01 X-8.8961 Y62.8515 
G01 X-8.6601 Y62.6703 
G01 X-8.4497 Y62.4599 
G01 X-8.2685 Y62.2238 
G01 X-8.2668 Y62.2209 
G01 X-8.1529 Y62.1629 
G01 X-7.9738 Y62.0327 
G01 X-4.4974 Y58.5564 
G01 X-1.1593 Y58.5564 
G01 X-0.9407 Y58.5218 
G01 X-0.7301 Y58.4534 
G01 X-0.5329 Y58.3529 
G01 X-0.3538 Y58.2227 
G01 X-0.1973 Y58.0662 
G01 X-0.0671 Y57.8871 
G01 X0.0334  Y57.6899 
G01 X0.1018  Y57.4793 
G01 X0.1364  Y57.2607 
G01 X0.1364  Y19.5743 
G01 X0.1018  Y19.3557 
G01 X0.0334  Y19.1451 
G01 X-0.0300 Y19.0208 
G01 X-0.0300 Y13.5831 
G01 X0.0566  Y13.4331 
G01 X0.1396  Y13.2328 
G01 X0.1957  Y13.0234 
G01 X0.2240  Y12.8084 
G01 X0.2240  Y12.5916 
G01 X0.1957  Y12.3766 
G01 X0.1396  Y12.1672 
G01 X0.0566  Y11.9669 
G01 X-0.0518 Y11.7791 
G01 X-0.1838 Y11.6071 
G00 Z2.5400  
G00 X-12.0125 Y31.8864 
G01 Z-0.2000 F254   
G01 X-9.0264 Y34.8725 F400   
G01 X-9.0264 Y40.9682 
G01 X-9.2804 Y41.2222 
G01 X-9.2804 Y42.5978 
G01 X-8.3078 Y43.5704 
G01 X-7.9486 Y43.5704 
G01 X-5.6145 Y45.9044 
G01 X-5.6731 Y46.0058 
G01 X-5.7615 Y46.2192 
G01 X-5.8213 Y46.4423 
G01 X-5.8514 Y46.6713 
G01 X-5.8514 Y48.4263 
G01 X-5.8213 Y48.6553 
G01 X-5.7615 Y48.8784 
G01 X-5.6731 Y49.0918 
G01 X-5.5576 Y49.2918 
G01 X-5.4958 Y49.3723 
G01 X-5.4958 Y52.2277 
G01 X-5.5576 Y52.3082 
G01 X-5.6731 Y52.5082 
G01 X-5.7615 Y52.7216 
G01 X-5.8213 Y52.9447 
G01 X-5.8514 Y53.1737 
G01 X-5.8514 Y54.8215 
G01 X-6.8486 Y53.8242 
G01 X-6.8486 Y53.1737 
G01 X-6.8787 Y52.9447 
G01 X-6.9385 Y52.7216 
G01 X-7.0269 Y52.5082 
G01 X-7.1424 Y52.3082 
G01 X-7.2042 Y52.2277 
G01 X-7.2042 Y49.3723 
G01 X-7.1424 Y49.2918 
G01 X-7.0269 Y49.0918 
G01 X-6.9385 Y48.8784 
G01 X-6.8787 Y48.6553 
G01 X-6.8486 Y48.4263 
G01 X-6.8486 Y46.6713 
G01 X-6.8787 Y46.4423 
G01 X-6.9385 Y46.2192 
G01 X-7.0269 Y46.0058 
G01 X-7.1424 Y45.8058 
G01 X-7.2830 Y45.6225 
G01 X-7.4463 Y45.4592 
G01 X-7.6296 Y45.3186 
G01 X-7.8296 Y45.2031 
G01 X-8.0430 Y45.1147 
G01 X-8.2661 Y45.0549 
G01 X-8.4951 Y45.0248 
G01 X-8.7261 Y45.0248 
G01 X-8.9551 Y45.0549 
G01 X-9.0816 Y45.0888 
G01 X-12.5636 Y41.6068 
G01 X-12.5636 Y35.4767 
G01 X-12.4383 Y35.3134 
G01 X-12.3178 Y35.1048 
G01 X-12.2256 Y34.8821 
G01 X-12.1633 Y34.6494 
G01 X-12.1318 Y34.4105 
G01 X-12.1318 Y34.1695 
G01 X-12.1633 Y33.9306 
G01 X-12.2256 Y33.6979 
G01 X-12.3178 Y33.4752 
G01 X-12.4383 Y33.2666 
G01 X-12.5850 Y33.0754 
G01 X-12.7554 Y32.9050 
G01 X-12.9466 Y32.7583 
G01 X-13.1552 Y32.6378 
G01 X-13.3779 Y32.5456 
G01 X-13.6106 Y32.4833 
G01 X-13.8495 Y32.4518 
G01 X-14.0905 Y32.4518 
G01 X-14.3294 Y32.4833 
G01 X-14.5621 Y32.5456 
G01 X-14.7848 Y32.6378 
G01 X-14.9934 Y32.7583 
G01 X-15.1846 Y32.9050 
G01 X-15.2400 Y32.9604 
G01 X-15.2954 Y32.9050 
G01 X-15.4866 Y32.7583 
G01 X-15.6952 Y32.6378 
G01 X-15.9179 Y32.5456 
G01 X-16.1506 Y32.4833 
G01 X-16.3895 Y32.4518 
G01 X-16.6305 Y32.4518 
G01 X-16.8694 Y32.4833 
G01 X-17.1021 Y32.5456 
G01 X-17.3248 Y32.6378 
G01 X-17.5334 Y32.7583 
G01 X-17.7246 Y32.9050 
G01 X-17.7800 Y32.9604 
G01 X-17.8354 Y32.9050 
G01 X-18.0266 Y32.7583 
G01 X-18.2352 Y32.6378 
G01 X-18.4579 Y32.5456 
G01 X-18.6906 Y32.4833 
G01 X-18.9295 Y32.4518 
G01 X-19.1705 Y32.4518 
G01 X-19.4094 Y32.4833 
G01 X-19.6421 Y32.5456 
G01 X-19.8648 Y32.6378 
G01 X-20.0734 Y32.7583 
G01 X-20.2646 Y32.9050 
G01 X-20.3200 Y32.9604 
G01 X-20.3754 Y32.9050 
G01 X-20.5666 Y32.7583 
G01 X-20.7752 Y32.6378 
G01 X-20.9979 Y32.5456 
G01 X-21.2306 Y32.4833 
G01 X-21.4695 Y32.4518 
G01 X-21.7105 Y32.4518 
G01 X-21.9494 Y32.4833 
G01 X-22.1821 Y32.5456 
G01 X-22.4048 Y32.6378 
G01 X-22.4125 Y32.6423 
G01 X-22.4125 Y29.4724 
G01 X-21.4451 Y28.5050 
G01 X-21.2306 Y28.4767 
G01 X-20.9979 Y28.4144 
G01 X-20.7752 Y28.3222 
G01 X-20.5666 Y28.2017 
G01 X-20.3754 Y28.0550 
G01 X-20.3200 Y27.9996 
G01 X-20.2646 Y28.0550 
G01 X-20.0734 Y28.2017 
G01 X-19.8648 Y28.3222 
G01 X-19.6421 Y28.4144 
G01 X-19.4094 Y28.4767 
G01 X-19.1705 Y28.5082 
G01 X-18.9295 Y28.5082 
G01 X-18.6906 Y28.4767 
G01 X-18.4579 Y28.4144 
G01 X-18.2352 Y28.3222 
G01 X-18.0266 Y28.2017 
G01 X-17.9164 Y28.1171 
G01 X-17.9164 Y29.3207 
G01 X-17.8818 Y29.5393 
G01 X-17.8134 Y29.7499 
G01 X-17.7129 Y29.9471 
G01 X-17.5827 Y30.1262 
G01 X-16.3127 Y31.3962 
G01 X-16.1562 Y31.5527 
G01 X-15.9771 Y31.6829 
G01 X-15.7799 Y31.7834 
G01 X-15.5693 Y31.8518 
G01 X-15.3507 Y31.8864 
G01 X-12.0125 Y31.8864 
G00 Z2.5400  
G00 X-20.1270 Y35.7805 
G01 Z-0.2000 F254   
G01 X-19.4497 Y38.4900 F400   
G01 X-19.6035 Y38.4900 
G01 X-20.1836 Y37.9099 
G01 X-20.1836 Y35.7371 
G01 X-20.1270 Y35.7805 
G00 Z2.5400  
G00 X-22.4125 Y39.6589 
G01 Z-0.2000 F254   
G01 X-20.8425 Y41.2289 F400   
G01 X-20.8425 Y42.0885 
G01 X-20.8041 Y42.2817 
G01 X-20.7287 Y42.4637 
G01 X-20.6192 Y42.6275 
G01 X-20.4800 Y42.7667 
G01 X-20.4661 Y42.7760 
G01 X-20.7724 Y42.9843 
G01 X-21.1147 Y43.2644 
G01 X-21.4309 Y43.5737 
G01 X-21.7185 Y43.9098 
G01 X-21.9754 Y44.2699 
G01 X-22.1993 Y44.6513 
G01 X-22.3887 Y45.0511 
G01 X-22.4125 Y45.1154 
G01 X-22.4125 Y39.6589 
G00 Z2.5400  
G00 X-2.6764 Y49.3637 
G01 Z-0.2000 F254   
G01 X-2.6764 Y52.2363 F400   
G01 X-2.6830 Y52.2277 
G01 X-2.6830 Y49.3723 
G01 X-2.6764 Y49.3637 
G00 Z2.5400  
G00 X-0.1751 Y10.8218 
G01 Z-0.2000 F254   
G01 X-0.4309 Y10.6741 F400   
G01 X-0.7039 Y10.5610 
G01 X-0.9893 Y10.4846 
G01 X-1.2823 Y10.4460 
G01 X-1.5777 Y10.4460 
G01 X-1.8707 Y10.4846 
G01 X-2.1561 Y10.5610 
G01 X-2.4291 Y10.6741 
G01 X-2.6849 Y10.8218 
G01 X-2.9194 Y11.0017 
G01 X-3.1283 Y11.2106 
G01 X-3.3081 Y11.4451 
G01 X-3.4559 Y11.7009 
G01 X-3.5690 Y11.9739 
G01 X-3.6454 Y12.2593 
G01 X-3.6840 Y12.5523 
G01 X-3.6840 Y12.8477 
G01 X-3.6454 Y13.1407 
G01 X-3.5690 Y13.4261 
G01 X-3.4559 Y13.6991 
G01 X-3.4300 Y13.7439 
G01 X-3.4300 Y19.6561 
G01 X-3.3958 Y19.9160 
G01 X-3.3279 Y20.1693 
G01 X-3.2764 Y20.2936 
G01 X-3.2764 Y43.4161 
G01 X-5.3596 Y41.3329 
G01 X-5.3596 Y40.9737 
G01 X-5.6136 Y40.7197 
G01 X-5.6136 Y34.1585 
G01 X-5.6479 Y33.8977 
G01 X-5.7160 Y33.6437 
G01 X-5.8167 Y33.4007 
G01 X-5.9482 Y33.1729 
G01 X-6.1083 Y32.9642 
G01 X-6.2942 Y32.7783 
G01 X-10.1043 Y28.9683 
G01 X-10.3129 Y28.8082 
G01 X-10.5407 Y28.6767 
G01 X-10.7837 Y28.5760 
G01 X-11.0377 Y28.5079 
G01 X-11.2985 Y28.4736 
G01 X-11.8555 Y28.4736 
G01 X-11.7634 Y28.3468 
G01 X-11.6490 Y28.1224 
G01 X-11.5712 Y27.8829 
G01 X-11.5318 Y27.6341 
G01 X-11.5318 Y25.7059 
G01 X-11.5525 Y25.5749 
G01 X-9.8804 Y27.2471 
G01 X-9.8804 Y27.6063 
G01 X-8.5563 Y28.9304 
G01 X-6.6837 Y28.9304 
G01 X-5.3596 Y27.6063 
G01 X-5.3596 Y25.7337 
G01 X-6.6837 Y24.4096 
G01 X-7.0429 Y24.4096 
G01 X-9.9183 Y21.5343 
G01 X-10.1043 Y21.3483 
G01 X-10.3129 Y21.1882 
G01 X-10.5407 Y21.0567 
G01 X-10.7837 Y20.9560 
G01 X-11.0377 Y20.8879 
G01 X-11.2985 Y20.8536 
G01 X-19.5836 Y20.8536 
G01 X-19.5836 Y14.4243 
G01 X-19.5556 Y14.3963 
G01 X-19.4076 Y14.1926 
G01 X-19.2932 Y13.9682 
G01 X-19.2154 Y13.7287 
G01 X-19.1760 Y13.4799 
G01 X-19.1760 Y11.9201 
G01 X-19.2154 Y11.6713 
G01 X-19.2932 Y11.4318 
G01 X-19.4076 Y11.2074 
G01 X-19.5556 Y11.0037 
G01 X-19.7337 Y10.8256 
G01 X-19.9374 Y10.6776 
G01 X-20.1618 Y10.5632 
G01 X-20.4013 Y10.4854 
G01 X-20.6501 Y10.4460 
G01 X-22.2099 Y10.4460 
G01 X-22.4587 Y10.4854 
G01 X-22.6982 Y10.5632 
G01 X-22.9226 Y10.6776 
G01 X-23.1263 Y10.8256 
G01 X-23.3044 Y11.0037 
G01 X-23.4524 Y11.2074 
G01 X-23.5668 Y11.4318 
G01 X-23.6446 Y11.6713 
G01 X-23.6840 Y11.9201 
G01 X-23.6840 Y13.4799 
G01 X-23.6446 Y13.7287 
G01 X-23.5964 Y13.8770 
G01 X-23.5964 Y25.2804 
G01 X-23.7273 Y25.4887 
G01 X-23.8462 Y25.7355 
G01 X-23.9366 Y25.9940 
G01 X-23.9940 Y26.2456 
G01 X-25.3194 Y27.5710 
G01 X-25.4790 Y27.7790 
G01 X-25.6101 Y28.0060 
G01 X-25.7104 Y28.2482 
G01 X-25.7783 Y28.5015 
G01 X-25.8125 Y28.7614 
G01 X-25.8125 Y49.0261 
G01 X-25.7783 Y49.2860 
G01 X-25.7104 Y49.5393 
G01 X-25.6101 Y49.7815 
G01 X-25.4790 Y50.0085 
G01 X-25.3194 Y50.2165 
G01 X-25.1340 Y50.4019 
G01 X-21.4425 Y54.0934 
G01 X-21.4425 Y54.6159 
G01 X-21.4031 Y54.8647 
G01 X-21.3253 Y55.1042 
G01 X-21.2109 Y55.3286 
G01 X-21.0629 Y55.5323 
G01 X-20.8848 Y55.7104 
G01 X-20.6811 Y55.8584 
G01 X-20.4567 Y55.9728 
G01 X-20.2172 Y56.0506 
G01 X-19.9684 Y56.0900 
G01 X-18.7166 Y56.0900 
G01 X-18.5612 Y56.0654 
G01 X-18.4059 Y56.0900 
G01 X-17.2464 Y56.0900 
G01 X-17.2464 Y58.9076 
G01 X-18.1100 Y59.7712 
G01 X-18.1100 Y62.1488 
G01 X-16.4288 Y63.8300 
G01 X-14.0512 Y63.8300 
G01 X-12.6356 Y62.4144 
G01 X-12.5043 Y62.6234 
G01 X-12.3034 Y62.8754 
G01 X-12.0754 Y63.1034 
G01 X-11.8234 Y63.3043 
G01 X-11.5505 Y63.4758 
G01 X-11.2600 Y63.6157 
G01 X-10.9558 Y63.7222 
G01 X-10.6415 Y63.7939 
G01 X-10.3212 Y63.8300 
G01 X-9.9988 Y63.8300 
G01 X-9.6785 Y63.7939 
G01 X-9.3642 Y63.7222 
G01 X-9.0600 Y63.6157 
G01 X-8.7695 Y63.4758 
G01 X-8.4966 Y63.3043 
G01 X-8.2446 Y63.1034 
G01 X-8.0166 Y62.8754 
G01 X-7.8646 Y62.6848 
G01 X-7.7729 Y62.6318 
G01 X-7.5643 Y62.4717 
G01 X-4.2489 Y59.1564 
G01 X-1.1385 Y59.1564 
G01 X-0.8777 Y59.1221 
G01 X-0.6237 Y59.0540 
G01 X-0.3807 Y58.9533 
G01 X-0.1529 Y58.8218 
G01 X0.0557  Y58.6617 
G01 X0.2417  Y58.4757 
G01 X0.4018  Y58.2671 
G01 X0.5333  Y58.0393 
G01 X0.6340  Y57.7963 
G01 X0.7021  Y57.5423 
G01 X0.7364  Y57.2815 
G01 X0.7364  Y19.5535 
G01 X0.7021  Y19.2927 
G01 X0.6340  Y19.0387 
G01 X0.5700  Y18.8842 
G01 X0.5700  Y13.7439 
G01 X0.5959  Y13.6991 
G01 X0.7090  Y13.4261 
G01 X0.7854  Y13.1407 
G01 X0.8240  Y12.8477 
G01 X0.8240  Y12.5523 
G01 X0.7854  Y12.2593 
G01 X0.7090  Y11.9739 
G01 X0.5959  Y11.7009 
G01 X0.4481  Y11.4451 
G01 X0.2683  Y11.2106 
G01 X0.0594  Y11.0017 
G01 X-0.1751 Y10.8218 
G00 Z2.5400  
G00 X-12.2611 Y32.4864 
G01 Z-0.2000 F254   
G01 X-9.6264 Y35.1211 F400   
G01 X-9.6264 Y40.7197 
G01 X-9.8804 Y40.9737 
G01 X-9.8804 Y42.8463 
G01 X-8.5563 Y44.1704 
G01 X-8.1971 Y44.1704 
G01 X-7.7992 Y44.5683 
G01 X-7.9557 Y44.5135 
G01 X-8.2143 Y44.4545 
G01 X-8.4779 Y44.4248 
G01 X-8.7432 Y44.4248 
G01 X-8.8815 Y44.4404 
G01 X-11.9636 Y41.3583 
G01 X-11.9636 Y35.6796 
G01 X-11.8327 Y35.4713 
G01 X-11.7138 Y35.2245 
G01 X-11.6234 Y34.9660 
G01 X-11.5625 Y34.6991 
G01 X-11.5318 Y34.4269 
G01 X-11.5318 Y34.1531 
G01 X-11.5625 Y33.8809 
G01 X-11.6234 Y33.6140 
G01 X-11.7138 Y33.3555 
G01 X-11.8327 Y33.1087 
G01 X-11.9784 Y32.8769 
G01 X-12.1491 Y32.6628 
G01 X-12.3255 Y32.4864 
G01 X-12.2611 Y32.4864 
G00 Z2.5400  
G00 X-16.6997 Y31.8577 
G01 Z-0.2000 F254   
G01 X-16.9191 Y31.8825 F400   
G01 X-17.1860 Y31.9434 
G01 X-17.4445 Y32.0338 
G01 X-17.6913 Y32.1527 
G01 X-17.7800 Y32.2084 
G01 X-17.8687 Y32.1527 
G01 X-18.1155 Y32.0338 
G01 X-18.3740 Y31.9434 
G01 X-18.6409 Y31.8825 
G01 X-18.9131 Y31.8518 
G01 X-19.1869 Y31.8518 
G01 X-19.4591 Y31.8825 
G01 X-19.7260 Y31.9434 
G01 X-19.9845 Y32.0338 
G01 X-20.2313 Y32.1527 
G01 X-20.3200 Y32.2084 
G01 X-20.4087 Y32.1527 
G01 X-20.6555 Y32.0338 
G01 X-20.9140 Y31.9434 
G01 X-21.1809 Y31.8825 
G01 X-21.4531 Y31.8518 
G01 X-21.7269 Y31.8518 
G01 X-21.8125 Y31.8614 
G01 X-21.8125 Y29.7209 
G01 X-21.1656 Y29.0740 
G01 X-20.9140 Y29.0166 
G01 X-20.6555 Y28.9261 
G01 X-20.4087 Y28.8073 
G01 X-20.3200 Y28.7516 
G01 X-20.2313 Y28.8073 
G01 X-19.9845 Y28.9261 
G01 X-19.7260 Y29.0166 
G01 X-19.4591 Y29.0775 
G01 X-19.1869 Y29.1082 
G01 X-18.9131 Y29.1082 
G01 X-18.6409 Y29.0775 
G01 X-18.5164 Y29.0491 
G01 X-18.5164 Y29.3415 
G01 X-18.4821 Y29.6023 
G01 X-18.4140 Y29.8563 
G01 X-18.3133 Y30.0993 
G01 X-18.1818 Y30.3271 
G01 X-18.0217 Y30.5357 
G01 X-16.7517 Y31.8057 
G01 X-16.6997 Y31.8577 
G00 Z2.5400  
G00 X-21.8125 Y41.1075 
G01 Z-0.2000 F254   
G01 X-21.4425 Y41.4775 F400   
G01 X-21.4425 Y42.1159 
G01 X-21.4031 Y42.3647 
G01 X-21.3253 Y42.6042 
G01 X-21.3060 Y42.6420 
G01 X-21.3496 Y42.6751 
G01 X-21.6981 Y42.9890 
G01 X-21.8125 Y43.1108 
G01 X-21.8125 Y41.1075 
G00 Z2.5400  
G00 X-12.1876 Y46.8093 
G01 Z-0.2000 F254   
G01 X-10.9726 Y48.0243 F400   
G01 X-10.9726 Y48.4434 
G01 X-10.9429 Y48.7071 
G01 X-10.8839 Y48.9657 
G01 X-10.7962 Y49.2161 
G01 X-10.6811 Y49.4551 
G01 X-10.6170 Y49.5572 
G01 X-10.6170 Y52.0428 
G01 X-10.6811 Y52.1449 
G01 X-10.7962 Y52.3839 
G01 X-10.8839 Y52.6343 
G01 X-10.9429 Y52.8929 
G01 X-10.9726 Y53.1566 
G01 X-10.9726 Y54.9458 
G01 X-10.9429 Y55.2095 
G01 X-10.8839 Y55.4681 
G01 X-10.7962 Y55.7185 
G01 X-10.6811 Y55.9575 
G01 X-10.5400 Y56.1822 
G01 X-10.3746 Y56.3896 
G01 X-10.1870 Y56.5772 
G01 X-9.9796 Y56.7426 
G01 X-9.7549 Y56.8837 
G01 X-9.5159 Y56.9988 
G01 X-9.2655 Y57.0865 
G01 X-9.0069 Y57.1455 
G01 X-8.7432 Y57.1752 
G01 X-8.4779 Y57.1752 
G01 X-8.3397 Y57.1596 
G01 X-8.1334 Y57.3659 
G01 X-9.0687 Y58.3012 
G01 X-9.3642 Y58.1978 
G01 X-9.6785 Y58.1261 
G01 X-9.9988 Y58.0900 
G01 X-10.3212 Y58.0900 
G01 X-10.6415 Y58.1261 
G01 X-10.9558 Y58.1978 
G01 X-11.2600 Y58.3043 
G01 X-11.5505 Y58.4442 
G01 X-11.8234 Y58.6157 
G01 X-12.0754 Y58.8166 
G01 X-12.3034 Y59.0446 
G01 X-12.5043 Y59.2966 
G01 X-12.6356 Y59.5056 
G01 X-13.2336 Y58.9076 
G01 X-13.2336 Y54.4785 
G01 X-13.2679 Y54.2177 
G01 X-13.3360 Y53.9637 
G01 X-13.4367 Y53.7207 
G01 X-13.5682 Y53.4929 
G01 X-13.7283 Y53.2843 
G01 X-13.9142 Y53.0983 
G01 X-14.1175 Y52.8950 
G01 X-14.1175 Y51.8641 
G01 X-14.1569 Y51.6153 
G01 X-14.2347 Y51.3758 
G01 X-14.2552 Y51.3356 
G01 X-14.0329 Y51.1516 
G01 X-13.6978 Y50.8235 
G01 X-13.3913 Y50.4684 
G01 X-13.1156 Y50.0890 
G01 X-12.8727 Y49.6878 
G01 X-12.6641 Y49.2677 
G01 X-12.4915 Y48.8317 
G01 X-12.3559 Y48.3827 
G01 X-12.2584 Y47.9239 
G01 X-12.1996 Y47.4586 
G01 X-12.1800 Y46.9900 
G01 X-12.1876 Y46.8093 
G00 Z2.5400  
G00 X-6.3500 Y46.0957 
G01 Z-0.2000 F254   
G01 X-6.3921 Y45.9754 F400   
G01 X-6.3297 Y46.0378 
G01 X-6.3500 Y46.0957 
G00 Z2.5400  
G00 X-6.3500 Y49.0019 
G01 Z-0.2000 F254   
G01 X-6.2750 Y49.2161 F400   
G01 X-6.1599 Y49.4551 
G01 X-6.0958 Y49.5572 
G01 X-6.0958 Y52.0428 
G01 X-6.1599 Y52.1449 
G01 X-6.2750 Y52.3839 
G01 X-6.3500 Y52.5981 
G01 X-6.4250 Y52.3839 
G01 X-6.5401 Y52.1449 
G01 X-6.6042 Y52.0428 
G01 X-6.6042 Y49.5572 
G01 X-6.5401 Y49.4551 
G01 X-6.4250 Y49.2161 
G01 X-6.3500 Y49.0019 
G00 Z2.5400  
G00 X-10.1600 Y60.9600 
G01 Z-0.2000 F508   
G00 Z2.5400  
G00 X-15.2400 Y60.9600 
G01 Z-0.2000 F508   
G00 Z2.5400  
G00 X-7.6200 Y41.9100 
G01 Z-0.2000 F508   
G00 Z2.5400  
G00 X-7.6200 Y26.6700 
G01 Z-0.2000 F508   
G00 Z2.5400  
G00 X-8.6106 Y54.0512 
G01 Z-0.2000 F508   
G00 Z2.5400  
G00 X-8.6106 Y47.5488 
G01 Z-0.2000 F508   
G00 Z2.5400  
G00 X-4.0894 Y54.0512 
G01 Z-0.2000 F508   
G00 Z2.5400  
G00 X-4.0894 Y47.5488 
G01 Z-0.2000 F508   
G00 Z2.5400  
G00 X-21.4300 Y12.7000 
G01 Z-0.2000 F508   
G00 Z2.5400  
G00 X-1.4300 Y12.7000 
G01 Z-0.2000 F508   
G00 Z2.5400  
G00 X-13.9700 Y26.6700 
G01 Z-0.2000 F508   
G00 Z2.5400  
G00 X-16.5100 Y26.6700 
G01 Z-0.2000 F508   
G00 Z2.5400  
G00 X-19.0500 Y26.6700 
G01 Z-0.2000 F508   
G00 Z2.5400  
G00 X-21.5900 Y26.6700 
G01 Z-0.2000 F508   
G00 Z2.5400  
G00 X-21.5900 Y34.2900 
G01 Z-0.2000 F508   
G00 Z2.5400  
G00 X-19.0500 Y34.2900 
G01 Z-0.2000 F508   
G00 Z2.5400  
G00 X-16.5100 Y34.2900 
G01 Z-0.2000 F508   
G00 Z2.5400  
G00 X-13.9700 Y34.2900 
G01 Z-0.2000 F508   
G00 Z2.5400  
G00 Z12.7000 
M05
M02
