(.../pcb-gcode-3.6.2.4/pcb-gcode.ulp)
(Copyright 2005 - 2012 by John Johnson)
(See readme.txt for licensing terms.)
(This file generated from the board:)
(.../Documents/eagle/blink2/rev1.brd)
(Current profile is .../pcb-gcode-3.6.2.4/profiles/mach.pp  )
(This file generated 2015-02-25 13:49:33)
(Settings from pcb-machine.h)
(spindle on time = 3.0000)
(spindle speed = 10000.0000)
(tool change at 0.0000  0.0000  25.4000 )
(feed rate xy = F0     )
(feed rate z  = F508   )
(Z Axis Settings)
(  High     Up        Down     Drill)
(12.7000 	2.5400  	-0.2000 	-2.0000 )
(Settings from pcb-defaults.h)
(isolate min = 0.0000)
(isolate max = 1.0000)
(isolate step = 0.6000)
(Generated bottom outlines, bottom drill, )
(Unit of measure: mm)
( Tool|       Size       |  Min Sub |  Max Sub |   Count )
( T01 | 0.800mm 0.0315in | 0.0000in | 0.0000in |       0 )
( T02 | 0.813mm 0.0320in | 0.0000in | 0.0000in |       0 )
( T03 | 1.016mm 0.0400in | 0.0000in | 0.0000in |       0 )
( T04 | 1.118mm 0.0440in | 0.0000in | 0.0000in |       0 )
(Metric Mode)
G21
(Absolute Coordinates)
G90
S10000
G00 Z12.7000 
G00 X0.0000  Y0.0000  
M03
G04 P3.000000
M05
G00 Z25.4000 
M06 T01  ; 0.8000  
G00 Z2.5400  
M03
G04 P3.000000
G00 X-1.4300 Y12.7000 
G01 Z-2.0000 F508   
G00 Z2.5400  
G00 X-21.4300 Y12.7000 
G01 Z-2.0000 F508   
G00 Z2.5400  
M05
G00 Z25.4000 
G00 X0.0000  Y0.0000  
M06 T02  ; 0.8128  
G00 Z2.5400  
M03
G04 P3.000000
G00 X-7.6200 Y26.6700 
G01 Z-2.0000 F508   
G00 Z2.5400  
G00 X-7.6200 Y41.9100 
G01 Z-2.0000 F508   
G00 Z2.5400  
M05
G00 Z25.4000 
G00 X0.0000  Y0.0000  
M06 T03  ; 1.0160  
G00 Z2.5400  
M03
G04 P3.000000
G00 X-4.0894 Y47.5488 
G01 Z-2.0000 F508   
G00 Z2.5400  
G00 X-8.6106 Y47.5488 
G01 Z-2.0000 F508   
G00 Z2.5400  
G00 X-8.6106 Y54.0512 
G01 Z-2.0000 F508   
G00 Z2.5400  
G00 X-4.0894 Y54.0512 
G01 Z-2.0000 F508   
G00 Z2.5400  
G00 X-10.1600 Y60.9600 
G01 Z-2.0000 F508   
G00 Z2.5400  
G00 X-15.2400 Y60.9600 
G01 Z-2.0000 F508   
G00 Z2.5400  
M05
G00 Z25.4000 
G00 X0.0000  Y0.0000  
M06 T04  ; 1.1176  
G00 Z2.5400  
M03
G04 P3.000000
G00 X-13.9700 Y26.6700 
G01 Z-2.0000 F508   
G00 Z2.5400  
G00 X-16.5100 Y26.6700 
G01 Z-2.0000 F508   
G00 Z2.5400  
G00 X-19.0500 Y26.6700 
G01 Z-2.0000 F508   
G00 Z2.5400  
G00 X-21.5900 Y26.6700 
G01 Z-2.0000 F508   
G00 Z2.5400  
G00 X-21.5900 Y34.2900 
G01 Z-2.0000 F508   
G00 Z2.5400  
G00 X-19.0500 Y34.2900 
G01 Z-2.0000 F508   
G00 Z2.5400  
G00 X-16.5100 Y34.2900 
G01 Z-2.0000 F508   
G00 Z2.5400  
G00 X-13.9700 Y34.2900 
G01 Z-2.0000 F508   
G00 Z2.5400  
T01 
G00 Z12.7000 
M05
M02
