(.../pcb-gcode-3.6.2.4/pcb-gcode.ulp)
(Copyright 2005 - 2012 by John Johnson)
(See readme.txt for licensing terms.)
(This file generated from the board:)
(.../Documents/eagle/blink2/rev2.brd)
(Current profile is .../pcb-gcode-3.6.2.4/profiles/mach.pp  )
(This file generated 2015-02-26 23:30:26)
(Settings from pcb-machine.h)
(spindle on time = 3.0000)
(  Tool Size)
(0.8000  )
(spindle speed = 10000.0000)
(tool change at 0.0000  0.0000  25.4000 )
(feed rate xy = F400   )
(feed rate z  = F254   )
(Z Axis Settings)
(  High     Up        Down     Drill)
(12.7000 	2.5400  	-0.1500 	-2.0000 )
(Settings from pcb-defaults.h)
(isolate min = 0.0000)
(isolate max = 1.0000)
(isolate step = 0.5000)
(Generated bottom outlines, bottom drill, )
(Unit of measure: mm)
(Metric Mode)
G21
(Absolute Coordinates)
G90
S10000
G00 Z12.7000 
G00 X0.0000  Y0.0000  
M03
G04 P3.000000
G00 Z2.5400  
G00 X-3.1661 Y12.0134 
G01 Z-0.1500 F254   
G01 X-3.2834 Y11.8961 F400   
G01 X-3.4176 Y11.7985 
G01 X-3.5654 Y11.7232 
G01 X-3.7232 Y11.6720 
G01 X-3.8870 Y11.6460 
G01 X-4.0530 Y11.6460 
G01 X-4.2168 Y11.6720 
G01 X-4.3746 Y11.7232 
G01 X-4.5224 Y11.7985 
G01 X-4.6566 Y11.8961 
G01 X-4.7739 Y12.0134 
G01 X-4.8715 Y12.1476 
G01 X-4.9468 Y12.2954 
G01 X-4.9980 Y12.4532 
G01 X-5.0240 Y12.6170 
G01 X-5.0240 Y12.7829 
G01 X-4.9980 Y12.9468 
G01 X-4.9468 Y13.1046 
G01 X-4.8715 Y13.2524 
G01 X-4.7764 Y13.3833 
G01 X-4.7764 Y36.6560 
G01 X-7.9540 Y39.8336 
G01 X-7.9992 Y39.8336 
G01 X-8.1082 Y39.7246 
G01 X-8.2610 Y39.6136 
G01 X-8.4293 Y39.5278 
G01 X-8.6090 Y39.4695 
G01 X-8.7955 Y39.4399 
G01 X-8.9845 Y39.4399 
G01 X-9.1710 Y39.4695 
G01 X-9.3507 Y39.5278 
G01 X-9.5190 Y39.6136 
G01 X-9.6718 Y39.7246 
G01 X-9.8054 Y39.8582 
G01 X-9.9164 Y40.0110 
G01 X-10.0022 Y40.1793 
G01 X-10.0605 Y40.3590 
G01 X-10.0901 Y40.5455 
G01 X-10.0901 Y40.7215 
G01 X-11.4165 Y42.0942 
G01 X-11.6599 Y42.0942 
G01 X-11.7398 Y42.0143 
G01 X-11.8878 Y41.9068 
G01 X-12.0507 Y41.8237 
G01 X-12.2247 Y41.7672 
G01 X-12.4053 Y41.7386 
G01 X-14.1122 Y41.7386 
G01 X-14.2929 Y41.7672 
G01 X-14.4669 Y41.8237 
G01 X-14.6298 Y41.9068 
G01 X-14.7778 Y42.0143 
G01 X-14.8577 Y42.0942 
G01 X-18.1623 Y42.0942 
G01 X-18.2422 Y42.0143 
G01 X-18.3902 Y41.9068 
G01 X-18.5531 Y41.8237 
G01 X-18.7271 Y41.7672 
G01 X-18.9077 Y41.7386 
G01 X-19.7828 Y41.7386 
G01 X-22.0536 Y39.4678 
G01 X-22.0536 Y35.0964 
G01 X-20.2882 Y35.0964 
G01 X-20.2882 Y35.1809 
G01 X-20.2609 Y35.2826 
G01 X-20.2083 Y35.3738 
G01 X-20.1338 Y35.4483 
G01 X-20.0426 Y35.5009 
G01 X-19.9409 Y35.5282 
G01 X-18.1591 Y35.5282 
G01 X-18.0574 Y35.5009 
G01 X-17.9662 Y35.4483 
G01 X-17.8917 Y35.3738 
G01 X-17.8391 Y35.2826 
G01 X-17.8118 Y35.1809 
G01 X-17.8118 Y33.3991 
G01 X-17.8391 Y33.2974 
G01 X-17.8917 Y33.2062 
G01 X-17.9662 Y33.1317 
G01 X-18.0574 Y33.0791 
G01 X-18.1591 Y33.0518 
G01 X-19.9409 Y33.0518 
G01 X-20.0426 Y33.0791 
G01 X-20.1338 Y33.1317 
G01 X-20.2083 Y33.2062 
G01 X-20.2609 Y33.2974 
G01 X-20.2882 Y33.3991 
G01 X-20.2882 Y33.4836 
G01 X-22.0536 Y33.4836 
G01 X-22.0536 Y32.0188 
G01 X-18.9706 Y27.9082 
G01 X-18.9525 Y27.9082 
G01 X-18.7601 Y27.8777 
G01 X-18.5747 Y27.8175 
G01 X-18.4010 Y27.7290 
G01 X-18.2434 Y27.6144 
G01 X-18.1056 Y27.4766 
G01 X-17.9910 Y27.3190 
G01 X-17.9025 Y27.1453 
G01 X-17.8423 Y26.9599 
G01 X-17.8118 Y26.7674 
G01 X-17.8118 Y26.5725 
G01 X-17.8423 Y26.3801 
G01 X-17.9025 Y26.1947 
G01 X-17.9910 Y26.0210 
G01 X-18.1056 Y25.8634 
G01 X-18.2434 Y25.7256 
G01 X-18.4010 Y25.6110 
G01 X-18.5747 Y25.5225 
G01 X-18.7601 Y25.4623 
G01 X-18.9525 Y25.4318 
G01 X-19.1474 Y25.4318 
G01 X-19.3399 Y25.4623 
G01 X-19.5253 Y25.5225 
G01 X-19.6990 Y25.6110 
G01 X-19.8566 Y25.7256 
G01 X-19.9944 Y25.8634 
G01 X-20.1090 Y26.0210 
G01 X-20.1975 Y26.1947 
G01 X-20.2577 Y26.3801 
G01 X-20.2882 Y26.5725 
G01 X-20.2882 Y26.7674 
G01 X-20.2608 Y26.9404 
G01 X-23.4707 Y31.2203 
G01 X-23.4864 Y31.2359 
G01 X-23.5183 Y31.2837 
G01 X-23.5528 Y31.3297 
G01 X-23.5623 Y31.3496 
G01 X-23.5746 Y31.3680 
G01 X-23.5966 Y31.4211 
G01 X-23.6215 Y31.4729 
G01 X-23.6269 Y31.4944 
G01 X-23.6354 Y31.5148 
G01 X-23.6466 Y31.5711 
G01 X-23.6609 Y31.6268 
G01 X-23.6621 Y31.6489 
G01 X-23.6664 Y31.6706 
G01 X-23.6664 Y31.7280 
G01 X-23.6695 Y31.7854 
G01 X-23.6664 Y31.8073 
G01 X-23.6664 Y39.8812 
G01 X-23.6354 Y40.0370 
G01 X-23.5746 Y40.1838 
G01 X-23.4864 Y40.3158 
G01 X-21.5143 Y42.2879 
G01 X-21.5170 Y42.2916 
G01 X-21.6001 Y42.4545 
G01 X-21.6566 Y42.6285 
G01 X-21.6852 Y42.8091 
G01 X-21.6852 Y42.9920 
G01 X-21.6566 Y43.1727 
G01 X-21.6001 Y43.3467 
G01 X-21.5170 Y43.5096 
G01 X-21.4095 Y43.6576 
G01 X-21.2802 Y43.7869 
G01 X-21.1322 Y43.8944 
G01 X-20.9693 Y43.9775 
G01 X-20.7953 Y44.0340 
G01 X-20.6147 Y44.0626 
G01 X-18.9077 Y44.0626 
G01 X-18.7271 Y44.0340 
G01 X-18.5531 Y43.9775 
G01 X-18.3902 Y43.8944 
G01 X-18.2422 Y43.7869 
G01 X-18.1623 Y43.7070 
G01 X-14.8577 Y43.7070 
G01 X-14.7778 Y43.7869 
G01 X-14.6298 Y43.8944 
G01 X-14.4669 Y43.9775 
G01 X-14.2929 Y44.0340 
G01 X-14.1122 Y44.0626 
G01 X-12.4053 Y44.0626 
G01 X-12.2247 Y44.0340 
G01 X-12.0507 Y43.9775 
G01 X-11.8878 Y43.8944 
G01 X-11.7398 Y43.7869 
G01 X-11.6599 Y43.7070 
G01 X-11.1469 Y43.7070 
G01 X-11.1400 Y43.7082 
G01 X-11.0675 Y43.7070 
G01 X-10.9950 Y43.7070 
G01 X-10.9881 Y43.7056 
G01 X-10.9812 Y43.7055 
G01 X-10.9103 Y43.6901 
G01 X-10.8392 Y43.6760 
G01 X-10.8327 Y43.6733 
G01 X-10.8259 Y43.6719 
G01 X-10.7593 Y43.6429 
G01 X-10.6924 Y43.6152 
G01 X-10.6866 Y43.6114 
G01 X-10.6802 Y43.6086 
G01 X-10.6206 Y43.5672 
G01 X-10.5603 Y43.5270 
G01 X-10.5554 Y43.5220 
G01 X-10.5497 Y43.5181 
G01 X-10.4993 Y43.4659 
G01 X-10.4480 Y43.4146 
G01 X-10.4442 Y43.4089 
G01 X-8.9283 Y41.8401 
G01 X-8.7955 Y41.8401 
G01 X-8.6090 Y41.8105 
G01 X-8.4293 Y41.7522 
G01 X-8.2610 Y41.6664 
G01 X-8.1082 Y41.5554 
G01 X-7.9992 Y41.4464 
G01 X-7.5406 Y41.4464 
G01 X-7.3848 Y41.4154 
G01 X-7.2380 Y41.3546 
G01 X-7.1059 Y41.2664 
G01 X-6.9936 Y41.1540 
G01 X-3.3436 Y37.5040 
G01 X-3.2554 Y37.3720 
G01 X-3.1946 Y37.2252 
G01 X-3.1636 Y37.0694 
G01 X-3.1636 Y13.3833 
G01 X-3.0685 Y13.2524 
G01 X-2.9932 Y13.1046 
G01 X-2.9420 Y12.9468 
G01 X-2.9160 Y12.7829 
G01 X-2.9160 Y12.6170 
G01 X-2.9420 Y12.4532 
G01 X-2.9932 Y12.2954 
G01 X-3.0685 Y12.1476 
G01 X-3.1661 Y12.0134 
G00 Z2.5400  
G00 X-6.8136 Y10.0806 
G01 Z-0.1500 F254   
G01 X-6.8446 Y9.9248  F400   
G01 X-6.9054 Y9.7780  
G01 X-6.9936 Y9.6459  
G01 X-7.1059 Y9.5336  
G01 X-9.6459 Y6.9936  
G01 X-9.7780 Y6.9054  
G01 X-9.9248 Y6.8446  
G01 X-10.0806 Y6.8136  
G01 X-11.5075 Y6.8136  
G01 X-11.5075 Y6.4173  
G01 X-11.5348 Y6.3156  
G01 X-11.5874 Y6.2244  
G01 X-11.6619 Y6.1499  
G01 X-11.7531 Y6.0973  
G01 X-11.8548 Y6.0700  
G01 X-12.9602 Y6.0700  
G01 X-13.0619 Y6.0973  
G01 X-13.1531 Y6.1499  
G01 X-13.1888 Y6.1856  
G01 X-13.2244 Y6.1499  
G01 X-13.3156 Y6.0973  
G01 X-13.4173 Y6.0700  
G01 X-14.5227 Y6.0700  
G01 X-14.6244 Y6.0973  
G01 X-14.7156 Y6.1499  
G01 X-14.7512 Y6.1856  
G01 X-14.7869 Y6.1499  
G01 X-14.8781 Y6.0973  
G01 X-14.9798 Y6.0700  
G01 X-16.0852 Y6.0700  
G01 X-16.1869 Y6.0973  
G01 X-16.2781 Y6.1499  
G01 X-16.3526 Y6.2244  
G01 X-16.4052 Y6.3156  
G01 X-16.4325 Y6.4173  
G01 X-16.4325 Y6.8136  
G01 X-17.8594 Y6.8136  
G01 X-18.0152 Y6.8446  
G01 X-18.1620 Y6.9054  
G01 X-18.2940 Y6.9936  
G01 X-18.4064 Y7.1059  
G01 X-23.0484 Y11.7479 
G01 X-23.0704 Y11.7259 
G01 X-23.1616 Y11.6733 
G01 X-23.2633 Y11.6460 
G01 X-24.6767 Y11.6460 
G01 X-24.7784 Y11.6733 
G01 X-24.8696 Y11.7259 
G01 X-24.9441 Y11.8004 
G01 X-24.9967 Y11.8916 
G01 X-25.0240 Y11.9933 
G01 X-25.0240 Y13.4067 
G01 X-24.9967 Y13.5084 
G01 X-24.9441 Y13.5996 
G01 X-24.8696 Y13.6741 
G01 X-24.7784 Y13.7267 
G01 X-24.6767 Y13.7540 
G01 X-23.2633 Y13.7540 
G01 X-23.1616 Y13.7267 
G01 X-23.0704 Y13.6741 
G01 X-22.9959 Y13.5996 
G01 X-22.9433 Y13.5084 
G01 X-22.7806 Y13.5064 
G01 X-22.6248 Y13.4754 
G01 X-22.4780 Y13.4146 
G01 X-22.3459 Y13.3264 
G01 X-17.4460 Y8.4264  
G01 X-16.4325 Y8.4264  
G01 X-16.4325 Y9.0227  
G01 X-16.4052 Y9.1244  
G01 X-16.3526 Y9.2156  
G01 X-16.2781 Y9.2901  
G01 X-16.1869 Y9.3427  
G01 X-16.0852 Y9.3700  
G01 X-14.9798 Y9.3700  
G01 X-14.8781 Y9.3427  
G01 X-14.7869 Y9.2901  
G01 X-14.7512 Y9.2544  
G01 X-14.7156 Y9.2901  
G01 X-14.6244 Y9.3427  
G01 X-14.5227 Y9.3700  
G01 X-13.4173 Y9.3700  
G01 X-13.3156 Y9.3427  
G01 X-13.2244 Y9.2901  
G01 X-13.1888 Y9.2544  
G01 X-13.1531 Y9.2901  
G01 X-13.0619 Y9.3427  
G01 X-12.9602 Y9.3700  
G01 X-11.8548 Y9.3700  
G01 X-11.7531 Y9.3427  
G01 X-11.6619 Y9.2901  
G01 X-11.5874 Y9.2156  
G01 X-11.5348 Y9.1244  
G01 X-11.5075 Y9.0227  
G01 X-11.5075 Y8.4264  
G01 X-10.4940 Y8.4264  
G01 X-8.4264 Y10.4940 
G01 X-8.4264 Y15.3194 
G01 X-8.3954 Y15.4752 
G01 X-8.3346 Y15.6220 
G01 X-8.2464 Y15.7540 
G01 X-6.5214 Y17.4790 
G01 X-6.5214 Y32.0510 
G01 X-7.7000 Y33.2296 
G01 X-8.0592 Y33.2296 
G01 X-8.3132 Y33.4836 
G01 X-10.4854 Y33.4836 
G01 X-10.6234 Y33.3456 
G01 X-10.7810 Y33.2310 
G01 X-10.9547 Y33.1425 
G01 X-11.1401 Y33.0823 
G01 X-11.3325 Y33.0518 
G01 X-11.5274 Y33.0518 
G01 X-11.7199 Y33.0823 
G01 X-11.9053 Y33.1425 
G01 X-12.0790 Y33.2310 
G01 X-12.2366 Y33.3456 
G01 X-12.3744 Y33.4834 
G01 X-12.4890 Y33.6410 
G01 X-12.5775 Y33.8147 
G01 X-12.6377 Y34.0001 
G01 X-12.6682 Y34.1925 
G01 X-12.6682 Y34.3874 
G01 X-12.6377 Y34.5799 
G01 X-12.5775 Y34.7653 
G01 X-12.4890 Y34.9390 
G01 X-12.3744 Y35.0966 
G01 X-12.2366 Y35.2344 
G01 X-12.0790 Y35.3490 
G01 X-11.9053 Y35.4375 
G01 X-11.7199 Y35.4977 
G01 X-11.5274 Y35.5282 
G01 X-11.3325 Y35.5282 
G01 X-11.1401 Y35.4977 
G01 X-10.9547 Y35.4375 
G01 X-10.7810 Y35.3490 
G01 X-10.6234 Y35.2344 
G01 X-10.4856 Y35.0966 
G01 X-8.4264 Y35.0964 
G01 X-8.4264 Y36.4960 
G01 X-8.8303 Y36.8999 
G01 X-9.3871 Y36.8999 
G01 X-10.0901 Y37.6029 
G01 X-10.0901 Y38.5971 
G01 X-9.3871 Y39.3001 
G01 X-8.3929 Y39.3001 
G01 X-7.6899 Y38.5971 
G01 X-7.6899 Y38.0403 
G01 X-6.9936 Y37.3440 
G01 X-6.9054 Y37.2120 
G01 X-6.8446 Y37.0652 
G01 X-6.8136 Y36.9094 
G01 X-6.8136 Y34.9832 
G01 X-6.5596 Y34.7292 
G01 X-6.5596 Y34.3700 
G01 X-5.0886 Y32.8990 
G01 X-5.0004 Y32.7670 
G01 X-4.9396 Y32.6202 
G01 X-4.9086 Y32.4644 
G01 X-4.9086 Y17.0656 
G01 X-4.9396 Y16.9098 
G01 X-5.0004 Y16.7630 
G01 X-5.0886 Y16.6309 
G01 X-6.8136 Y14.9060 
G01 X-6.8136 Y10.0806 
G00 Z2.5400  
G00 X-10.7856 Y10.9337 
G01 Z-0.1500 F254   
G01 X-11.0886 Y10.6447 F400   
G01 X-11.4177 Y10.3859 
G01 X-11.7700 Y10.1595 
G01 X-12.1422 Y9.9676  
G01 X-12.5309 Y9.8120  
G01 X-12.9327 Y9.6940  
G01 X-13.3438 Y9.6148  
G01 X-13.7606 Y9.5750  
G01 X-14.1794 Y9.5750  
G01 X-14.5962 Y9.6148  
G01 X-15.0073 Y9.6940  
G01 X-15.4091 Y9.8120  
G01 X-15.7978 Y9.9676  
G01 X-16.1700 Y10.1595 
G01 X-16.5222 Y10.3859 
G01 X-16.8514 Y10.6447 
G01 X-17.1544 Y10.9337 
G01 X-17.4286 Y11.2501 
G01 X-17.6715 Y11.5912 
G01 X-17.8809 Y11.9538 
G01 X-18.0548 Y12.3347 
G01 X-18.1918 Y12.7304 
G01 X-18.2905 Y13.1373 
G01 X-18.3501 Y13.5518 
G01 X-18.3700 Y13.9700 
G01 X-18.3501 Y14.3882 
G01 X-18.2905 Y14.8027 
G01 X-18.1918 Y15.2096 
G01 X-18.0548 Y15.6053 
G01 X-17.8809 Y15.9862 
G01 X-17.6715 Y16.3488 
G01 X-17.4286 Y16.6899 
G01 X-17.1544 Y17.0063 
G01 X-16.8514 Y17.2953 
G01 X-16.5222 Y17.5541 
G01 X-16.1700 Y17.7805 
G01 X-15.7978 Y17.9724 
G01 X-15.4091 Y18.1280 
G01 X-15.0073 Y18.2460 
G01 X-14.5962 Y18.3252 
G01 X-14.1794 Y18.3650 
G01 X-13.7606 Y18.3650 
G01 X-13.3438 Y18.3252 
G01 X-12.9327 Y18.2460 
G01 X-12.5309 Y18.1280 
G01 X-12.1422 Y17.9724 
G01 X-11.7700 Y17.7805 
G01 X-11.4177 Y17.5541 
G01 X-11.0886 Y17.2953 
G01 X-10.7856 Y17.0063 
G01 X-10.5114 Y16.6899 
G01 X-10.2685 Y16.3488 
G01 X-10.0591 Y15.9862 
G01 X-9.8852 Y15.6053 
G01 X-9.7482 Y15.2096 
G01 X-9.6495 Y14.8027 
G01 X-9.5899 Y14.3882 
G01 X-9.5700 Y13.9700 
G01 X-9.5899 Y13.5518 
G01 X-9.6495 Y13.1373 
G01 X-9.7482 Y12.7304 
G01 X-9.8852 Y12.3347 
G01 X-10.0591 Y11.9538 
G01 X-10.2685 Y11.5912 
G01 X-10.5114 Y11.2501 
G01 X-10.7856 Y10.9337 
G00 Z2.5400  
G00 X-11.5874 Y18.7244 
G01 Z-0.1500 F254   
G01 X-11.6619 Y18.6499 F400   
G01 X-11.7531 Y18.5973 
G01 X-11.8548 Y18.5700 
G01 X-12.9602 Y18.5700 
G01 X-13.0619 Y18.5973 
G01 X-13.1531 Y18.6499 
G01 X-13.1888 Y18.6856 
G01 X-13.2244 Y18.6499 
G01 X-13.3156 Y18.5973 
G01 X-13.4173 Y18.5700 
G01 X-14.5227 Y18.5700 
G01 X-14.6244 Y18.5973 
G01 X-14.7156 Y18.6499 
G01 X-14.7512 Y18.6856 
G01 X-14.7869 Y18.6499 
G01 X-14.8781 Y18.5973 
G01 X-14.9798 Y18.5700 
G01 X-16.0852 Y18.5700 
G01 X-16.1869 Y18.5973 
G01 X-16.2781 Y18.6499 
G01 X-16.3526 Y18.7244 
G01 X-16.4052 Y18.8156 
G01 X-16.4325 Y18.9173 
G01 X-16.4325 Y19.9796 
G01 X-17.1364 Y20.6835 
G01 X-17.2246 Y20.8155 
G01 X-17.2854 Y20.9623 
G01 X-17.3164 Y21.1181 
G01 X-17.3164 Y25.7254 
G01 X-17.4544 Y25.8634 
G01 X-17.5690 Y26.0210 
G01 X-17.6575 Y26.1947 
G01 X-17.7177 Y26.3801 
G01 X-17.7482 Y26.5725 
G01 X-17.7482 Y26.7674 
G01 X-17.7177 Y26.9599 
G01 X-17.6575 Y27.1453 
G01 X-17.5690 Y27.3190 
G01 X-17.4544 Y27.4766 
G01 X-17.3166 Y27.6144 
G01 X-17.1590 Y27.7290 
G01 X-16.9853 Y27.8175 
G01 X-16.7999 Y27.8777 
G01 X-16.6074 Y27.9082 
G01 X-16.4125 Y27.9082 
G01 X-16.2201 Y27.8777 
G01 X-16.0347 Y27.8175 
G01 X-15.8610 Y27.7290 
G01 X-15.7034 Y27.6144 
G01 X-15.5656 Y27.4766 
G01 X-15.4510 Y27.3190 
G01 X-15.3625 Y27.1453 
G01 X-15.3023 Y26.9599 
G01 X-15.2718 Y26.7674 
G01 X-15.2718 Y26.5725 
G01 X-15.3023 Y26.3801 
G01 X-15.3625 Y26.1947 
G01 X-15.4510 Y26.0210 
G01 X-15.5656 Y25.8634 
G01 X-15.7034 Y25.7256 
G01 X-15.7036 Y21.8700 
G01 X-14.9798 Y21.8700 
G01 X-14.8781 Y21.8427 
G01 X-14.7869 Y21.7901 
G01 X-14.7764 Y21.7796 
G01 X-14.7764 Y25.7254 
G01 X-14.9144 Y25.8634 
G01 X-15.0290 Y26.0210 
G01 X-15.1175 Y26.1947 
G01 X-15.1777 Y26.3801 
G01 X-15.2082 Y26.5725 
G01 X-15.2082 Y26.7674 
G01 X-15.1777 Y26.9599 
G01 X-15.1175 Y27.1453 
G01 X-15.0290 Y27.3190 
G01 X-14.9144 Y27.4766 
G01 X-14.7766 Y27.6144 
G01 X-14.6190 Y27.7290 
G01 X-14.4453 Y27.8175 
G01 X-14.2599 Y27.8777 
G01 X-14.0674 Y27.9082 
G01 X-13.8726 Y27.9082 
G01 X-13.6801 Y27.8777 
G01 X-13.4947 Y27.8175 
G01 X-13.3210 Y27.7290 
G01 X-13.1634 Y27.6144 
G01 X-13.0256 Y27.4766 
G01 X-12.9110 Y27.3190 
G01 X-12.8225 Y27.1453 
G01 X-12.7623 Y26.9599 
G01 X-12.7318 Y26.7674 
G01 X-12.7318 Y26.5725 
G01 X-12.7623 Y26.3801 
G01 X-12.8225 Y26.1947 
G01 X-12.9110 Y26.0210 
G01 X-13.0256 Y25.8634 
G01 X-13.1634 Y25.7256 
G01 X-13.1636 Y21.7796 
G01 X-13.1531 Y21.7901 
G01 X-13.0619 Y21.8427 
G01 X-12.9602 Y21.8700 
G01 X-12.2364 Y21.8700 
G01 X-12.2364 Y25.7254 
G01 X-12.3744 Y25.8634 
G01 X-12.4890 Y26.0210 
G01 X-12.5775 Y26.1947 
G01 X-12.6377 Y26.3801 
G01 X-12.6682 Y26.5725 
G01 X-12.6682 Y26.7674 
G01 X-12.6377 Y26.9599 
G01 X-12.5775 Y27.1453 
G01 X-12.4890 Y27.3190 
G01 X-12.3744 Y27.4766 
G01 X-12.2366 Y27.6144 
G01 X-12.0790 Y27.7290 
G01 X-11.9053 Y27.8175 
G01 X-11.7199 Y27.8777 
G01 X-11.5274 Y27.9082 
G01 X-11.3325 Y27.9082 
G01 X-11.1401 Y27.8777 
G01 X-10.9547 Y27.8175 
G01 X-10.7810 Y27.7290 
G01 X-10.6234 Y27.6144 
G01 X-10.4856 Y27.4766 
G01 X-10.3710 Y27.3190 
G01 X-10.2825 Y27.1453 
G01 X-10.2223 Y26.9599 
G01 X-10.1918 Y26.7674 
G01 X-10.1918 Y26.5725 
G01 X-10.2223 Y26.3801 
G01 X-10.2825 Y26.1947 
G01 X-10.3710 Y26.0210 
G01 X-10.4856 Y25.8634 
G01 X-10.6234 Y25.7256 
G01 X-10.6236 Y21.1181 
G01 X-10.6546 Y20.9623 
G01 X-10.7154 Y20.8155 
G01 X-10.8036 Y20.6835 
G01 X-11.5075 Y19.9796 
G01 X-11.5075 Y18.9173 
G01 X-11.5348 Y18.8156 
G01 X-11.5874 Y18.7244 
G00 Z2.5400  
G00 X-8.6804 Y23.6908 
G01 Z-0.1500 F254   
G01 X-8.6804 Y24.5692 F400   
G01 X-8.4264 Y24.8232 
G01 X-8.4264 Y27.6060 
G01 X-10.4940 Y29.6736 
G01 X-15.3194 Y29.6736 
G01 X-15.4752 Y29.7046 
G01 X-15.6220 Y29.7654 
G01 X-15.7540 Y29.8536 
G01 X-15.8664 Y29.9659 
G01 X-17.1364 Y31.2359 
G01 X-17.2246 Y31.3680 
G01 X-17.2854 Y31.5148 
G01 X-17.3164 Y31.6706 
G01 X-17.3164 Y33.3454 
G01 X-17.4544 Y33.4834 
G01 X-17.5690 Y33.6410 
G01 X-17.6575 Y33.8147 
G01 X-17.7177 Y34.0001 
G01 X-17.7482 Y34.1925 
G01 X-17.7482 Y34.3874 
G01 X-17.7177 Y34.5799 
G01 X-17.6575 Y34.7653 
G01 X-17.5690 Y34.9390 
G01 X-17.4544 Y35.0966 
G01 X-17.3166 Y35.2344 
G01 X-17.3164 Y36.3357 
G01 X-17.3190 Y36.3525 
G01 X-17.3164 Y36.4150 
G01 X-17.3164 Y36.4776 
G01 X-17.3131 Y36.4943 
G01 X-17.3124 Y36.5112 
G01 X-17.2976 Y36.5720 
G01 X-17.2854 Y36.6334 
G01 X-17.2789 Y36.6491 
G01 X-17.2749 Y36.6656 
G01 X-17.2486 Y36.7223 
G01 X-17.2246 Y36.7802 
G01 X-17.2152 Y36.7943 
G01 X-17.2080 Y36.8097 
G01 X-17.1711 Y36.8602 
G01 X-17.1364 Y36.9122 
G01 X-17.1244 Y36.9242 
G01 X-17.1144 Y36.9380 
G01 X-17.0683 Y36.9803 
G01 X-17.0240 Y37.0246 
G01 X-17.0099 Y37.0340 
G01 X-16.9974 Y37.0455 
G01 X-16.9440 Y37.0780 
G01 X-16.8920 Y37.1128 
G01 X-16.8763 Y37.1193 
G01 X-16.1318 Y37.5730 
G01 X-18.1623 Y37.5730 
G01 X-18.2422 Y37.4931 
G01 X-18.3902 Y37.3856 
G01 X-18.5531 Y37.3025 
G01 X-18.7271 Y37.2460 
G01 X-18.9077 Y37.2174 
G01 X-20.6147 Y37.2174 
G01 X-20.7953 Y37.2460 
G01 X-20.9693 Y37.3025 
G01 X-21.1322 Y37.3856 
G01 X-21.2802 Y37.4931 
G01 X-21.4095 Y37.6224 
G01 X-21.5170 Y37.7704 
G01 X-21.6001 Y37.9333 
G01 X-21.6566 Y38.1073 
G01 X-21.6852 Y38.2879 
G01 X-21.6852 Y38.4708 
G01 X-21.6566 Y38.6515 
G01 X-21.6001 Y38.8255 
G01 X-21.5170 Y38.9884 
G01 X-21.4095 Y39.1364 
G01 X-21.2802 Y39.2657 
G01 X-21.1322 Y39.3732 
G01 X-20.9693 Y39.4563 
G01 X-20.7953 Y39.5128 
G01 X-20.6147 Y39.5414 
G01 X-18.9077 Y39.5414 
G01 X-18.7271 Y39.5128 
G01 X-18.5531 Y39.4563 
G01 X-18.3902 Y39.3732 
G01 X-18.2422 Y39.2657 
G01 X-18.1623 Y39.1858 
G01 X-14.8577 Y39.1858 
G01 X-14.7778 Y39.2657 
G01 X-14.6298 Y39.3732 
G01 X-14.4669 Y39.4563 
G01 X-14.2929 Y39.5128 
G01 X-14.1122 Y39.5414 
G01 X-12.4053 Y39.5414 
G01 X-12.2247 Y39.5128 
G01 X-12.0507 Y39.4563 
G01 X-11.8878 Y39.3732 
G01 X-11.7398 Y39.2657 
G01 X-11.6105 Y39.1364 
G01 X-11.5030 Y38.9884 
G01 X-11.4199 Y38.8255 
G01 X-11.3634 Y38.6515 
G01 X-11.3348 Y38.4708 
G01 X-11.3348 Y38.2879 
G01 X-11.3634 Y38.1073 
G01 X-11.4199 Y37.9333 
G01 X-11.5030 Y37.7704 
G01 X-11.6105 Y37.6224 
G01 X-11.7398 Y37.4931 
G01 X-11.8878 Y37.3856 
G01 X-12.0507 Y37.3025 
G01 X-12.2247 Y37.2460 
G01 X-12.4053 Y37.2174 
G01 X-13.6160 Y37.2174 
G01 X-15.7036 Y35.9453 
G01 X-15.7036 Y35.2346 
G01 X-15.5656 Y35.0966 
G01 X-15.4510 Y34.9390 
G01 X-15.3625 Y34.7653 
G01 X-15.3023 Y34.5799 
G01 X-15.2718 Y34.3874 
G01 X-15.2718 Y34.1925 
G01 X-15.3023 Y34.0001 
G01 X-15.3625 Y33.8147 
G01 X-15.4510 Y33.6410 
G01 X-15.5656 Y33.4834 
G01 X-15.7034 Y33.3456 
G01 X-15.7036 Y32.0840 
G01 X-14.9060 Y31.2864 
G01 X-10.0806 Y31.2864 
G01 X-9.9248 Y31.2554 
G01 X-9.7780 Y31.1946 
G01 X-9.6459 Y31.1064 
G01 X-9.5336 Y30.9940 
G01 X-6.9936 Y28.4540 
G01 X-6.9054 Y28.3220 
G01 X-6.8446 Y28.1752 
G01 X-6.8136 Y28.0194 
G01 X-6.8136 Y24.8232 
G01 X-6.5596 Y24.5692 
G01 X-6.5596 Y23.6908 
G01 X-7.1808 Y23.0696 
G01 X-8.0592 Y23.0696 
G01 X-8.6804 Y23.6908 
G00 Z2.5400  
G00 X-13.0256 Y33.4834 
G01 Z-0.1500 F254   
G01 X-13.1634 Y33.3456 F400   
G01 X-13.3210 Y33.2310 
G01 X-13.4947 Y33.1425 
G01 X-13.6801 Y33.0823 
G01 X-13.8726 Y33.0518 
G01 X-14.0674 Y33.0518 
G01 X-14.2599 Y33.0823 
G01 X-14.4453 Y33.1425 
G01 X-14.6190 Y33.2310 
G01 X-14.7766 Y33.3456 
G01 X-14.9144 Y33.4834 
G01 X-15.0290 Y33.6410 
G01 X-15.1175 Y33.8147 
G01 X-15.1777 Y34.0001 
G01 X-15.2082 Y34.1925 
G01 X-15.2082 Y34.3874 
G01 X-15.1777 Y34.5799 
G01 X-15.1175 Y34.7653 
G01 X-15.0290 Y34.9390 
G01 X-14.9144 Y35.0966 
G01 X-14.7766 Y35.2344 
G01 X-14.6190 Y35.3490 
G01 X-14.4453 Y35.4375 
G01 X-14.2599 Y35.4977 
G01 X-14.0674 Y35.5282 
G01 X-13.8726 Y35.5282 
G01 X-13.6801 Y35.4977 
G01 X-13.4947 Y35.4375 
G01 X-13.3210 Y35.3490 
G01 X-13.1634 Y35.2344 
G01 X-13.0256 Y35.0966 
G01 X-12.9110 Y34.9390 
G01 X-12.8225 Y34.7653 
G01 X-12.7623 Y34.5799 
G01 X-12.7318 Y34.3874 
G01 X-12.7318 Y34.1925 
G01 X-12.7623 Y34.0001 
G01 X-12.8225 Y33.8147 
G01 X-12.9110 Y33.6410 
G01 X-13.0256 Y33.4834 
G00 Z2.5400  
G00 X-13.1016 Y46.2207 
G01 Z-0.1500 F254   
G01 X-13.2562 Y46.1900 F400   
G01 X-14.6838 Y46.1900 
G01 X-14.8384 Y46.2207 
G01 X-14.9839 Y46.2811 
G01 X-15.1150 Y46.3686 
G01 X-15.2264 Y46.4800 
G01 X-15.8614 Y47.1150 
G01 X-15.9489 Y47.2461 
G01 X-16.0093 Y47.3916 
G01 X-16.0400 Y47.5462 
G01 X-16.0400 Y48.9738 
G01 X-16.0093 Y49.1283 
G01 X-15.9489 Y49.2739 
G01 X-15.8614 Y49.4050 
G01 X-15.7500 Y49.5164 
G01 X-15.1150 Y50.1514 
G01 X-14.9839 Y50.2389 
G01 X-14.8384 Y50.2993 
G01 X-14.6838 Y50.3300 
G01 X-14.5262 Y50.3300 
G01 X-13.8912 Y50.3300 
G01 X-13.7366 Y50.2993 
G01 X-13.5911 Y50.2389 
G01 X-13.4600 Y50.1514 
G01 X-13.3486 Y50.0400 
G01 X-13.2610 Y49.9089 
G01 X-13.2007 Y49.7634 
G01 X-13.1700 Y49.6088 
G01 X-13.1700 Y49.4512 
G01 X-13.2007 Y49.2966 
G01 X-13.2610 Y49.1511 
G01 X-13.3486 Y49.0200 
G01 X-13.4600 Y48.9086 
G01 X-13.5911 Y48.8210 
G01 X-13.7366 Y48.7607 
G01 X-13.8912 Y48.7300 
G01 X-14.2736 Y48.7300 
G01 X-14.4400 Y48.5636 
G01 X-14.4400 Y47.9564 
G01 X-14.2736 Y47.7900 
G01 X-13.6664 Y47.7900 
G01 X-13.5000 Y47.9564 
G01 X-13.5000 Y48.3388 
G01 X-13.4693 Y48.4933 
G01 X-13.4089 Y48.6389 
G01 X-13.3214 Y48.7700 
G01 X-13.2100 Y48.8814 
G01 X-13.0789 Y48.9689 
G01 X-12.9334 Y49.0293 
G01 X-12.7788 Y49.0600 
G01 X-12.6212 Y49.0600 
G01 X-12.4666 Y49.0293 
G01 X-12.3211 Y48.9689 
G01 X-12.1900 Y48.8814 
G01 X-12.0786 Y48.7700 
G01 X-11.9910 Y48.6389 
G01 X-11.9307 Y48.4933 
G01 X-11.9000 Y48.3388 
G01 X-11.9000 Y47.5462 
G01 X-11.9307 Y47.3916 
G01 X-11.9910 Y47.2461 
G01 X-12.0786 Y47.1150 
G01 X-12.1900 Y47.0036 
G01 X-12.8250 Y46.3686 
G01 X-12.9561 Y46.2811 
G01 X-13.1016 Y46.2207 
G00 Z2.5400  
G00 X-2.7847 Y11.6876 
G01 Z-0.1500 F254   
G01 X-2.9576 Y11.5147 F400   
G01 X-3.1555 Y11.3709 
G01 X-3.3735 Y11.2599 
G01 X-3.6061 Y11.1843 
G01 X-3.8477 Y11.1460 
G01 X-4.0923 Y11.1460 
G01 X-4.3339 Y11.1843 
G01 X-4.5665 Y11.2599 
G01 X-4.7845 Y11.3709 
G01 X-4.9824 Y11.5147 
G01 X-5.1553 Y11.6876 
G01 X-5.2991 Y11.8855 
G01 X-5.4101 Y12.1035 
G01 X-5.4857 Y12.3361 
G01 X-5.5240 Y12.5777 
G01 X-5.5240 Y12.8223 
G01 X-5.4857 Y13.0639 
G01 X-5.4101 Y13.2965 
G01 X-5.2991 Y13.5145 
G01 X-5.2764 Y13.5457 
G01 X-5.2764 Y15.7361 
G01 X-6.3136 Y14.6989 
G01 X-6.3136 Y10.0572 
G01 X-6.3458 Y9.8541  
G01 X-6.4093 Y9.6585  
G01 X-6.5027 Y9.4753  
G01 X-6.6235 Y9.3089  
G01 X-6.7689 Y9.1635  
G01 X-9.3089 Y6.6235  
G01 X-9.4753 Y6.5027  
G01 X-9.6585 Y6.4093  
G01 X-9.8541 Y6.3458  
G01 X-10.0572 Y6.3136  
G01 X-11.0210 Y6.3136  
G01 X-11.0421 Y6.2075  
G01 X-11.1099 Y6.0437  
G01 X-11.2084 Y5.8963  
G01 X-11.3338 Y5.7709  
G01 X-11.4812 Y5.6724  
G01 X-11.6450 Y5.6046  
G01 X-11.8189 Y5.5700  
G01 X-12.9961 Y5.5700  
G01 X-13.1700 Y5.6046  
G01 X-13.1888 Y5.6123  
G01 X-13.2075 Y5.6046  
G01 X-13.3814 Y5.5700  
G01 X-14.5586 Y5.5700  
G01 X-14.7325 Y5.6046  
G01 X-14.7512 Y5.6123  
G01 X-14.7700 Y5.6046  
G01 X-14.9439 Y5.5700  
G01 X-16.1211 Y5.5700  
G01 X-16.2950 Y5.6046  
G01 X-16.4588 Y5.6724  
G01 X-16.6062 Y5.7709  
G01 X-16.7316 Y5.8963  
G01 X-16.8301 Y6.0437  
G01 X-16.8979 Y6.2075  
G01 X-16.9190 Y6.3136  
G01 X-17.8828 Y6.3136  
G01 X-18.0859 Y6.3458  
G01 X-18.2815 Y6.4093  
G01 X-18.4647 Y6.5027  
G01 X-18.6311 Y6.6235  
G01 X-18.7765 Y6.7689  
G01 X-23.1658 Y11.1583 
G01 X-23.2274 Y11.1460 
G01 X-24.7126 Y11.1460 
G01 X-24.8865 Y11.1806 
G01 X-25.0503 Y11.2484 
G01 X-25.1977 Y11.3469 
G01 X-25.3231 Y11.4723 
G01 X-25.4216 Y11.6197 
G01 X-25.4894 Y11.7835 
G01 X-25.5240 Y11.9574 
G01 X-25.5240 Y13.4426 
G01 X-25.4894 Y13.6165 
G01 X-25.4216 Y13.7803 
G01 X-25.3231 Y13.9277 
G01 X-25.1977 Y14.0531 
G01 X-25.0503 Y14.1516 
G01 X-24.8865 Y14.2194 
G01 X-24.7126 Y14.2540 
G01 X-23.2274 Y14.2540 
G01 X-23.0535 Y14.2194 
G01 X-22.8897 Y14.1516 
G01 X-22.7423 Y14.0531 
G01 X-22.6840 Y13.9948 
G01 X-22.5541 Y13.9742 
G01 X-22.3585 Y13.9107 
G01 X-22.1753 Y13.8173 
G01 X-22.0089 Y13.6965 
G01 X-17.2389 Y8.9264  
G01 X-16.9325 Y8.9264  
G01 X-16.9325 Y9.0586  
G01 X-16.8979 Y9.2325  
G01 X-16.8301 Y9.3963  
G01 X-16.7316 Y9.5437  
G01 X-16.6062 Y9.6691  
G01 X-16.4689 Y9.7608  
G01 X-16.6694 Y9.8806  
G01 X-17.0251 Y10.1390 
G01 X-17.3562 Y10.4283 
G01 X-17.6600 Y10.7461 
G01 X-17.9342 Y11.0899 
G01 X-18.1764 Y11.4568 
G01 X-18.3847 Y11.8440 
G01 X-18.5575 Y12.2483 
G01 X-18.6934 Y12.6664 
G01 X-18.7913 Y13.0951 
G01 X-18.8503 Y13.5308 
G01 X-18.8700 Y13.9700 
G01 X-18.8503 Y14.4092 
G01 X-18.7913 Y14.8449 
G01 X-18.6934 Y15.2736 
G01 X-18.5575 Y15.6917 
G01 X-18.3847 Y16.0960 
G01 X-18.1764 Y16.4832 
G01 X-17.9342 Y16.8501 
G01 X-17.6600 Y17.1939 
G01 X-17.3562 Y17.5117 
G01 X-17.0251 Y17.8010 
G01 X-16.6694 Y18.0594 
G01 X-16.4689 Y18.1792 
G01 X-16.6062 Y18.2709 
G01 X-16.7316 Y18.3963 
G01 X-16.8301 Y18.5437 
G01 X-16.8979 Y18.7075 
G01 X-16.9325 Y18.8814 
G01 X-16.9325 Y19.7725 
G01 X-17.5065 Y20.3464 
G01 X-17.6273 Y20.5128 
G01 X-17.7207 Y20.6960 
G01 X-17.7842 Y20.8916 
G01 X-17.8164 Y21.0947 
G01 X-17.8164 Y25.4454 
G01 X-17.9015 Y25.3603 
G01 X-18.0822 Y25.2216 
G01 X-18.2796 Y25.1077 
G01 X-18.4901 Y25.0205 
G01 X-18.7102 Y24.9615 
G01 X-18.9361 Y24.9318 
G01 X-19.1639 Y24.9318 
G01 X-19.3898 Y24.9615 
G01 X-19.6099 Y25.0205 
G01 X-19.8204 Y25.1077 
G01 X-20.0178 Y25.2216 
G01 X-20.1985 Y25.3603 
G01 X-20.3596 Y25.5215 
G01 X-20.4984 Y25.7022 
G01 X-20.6123 Y25.8996 
G01 X-20.6995 Y26.1101 
G01 X-20.7585 Y26.3302 
G01 X-20.7882 Y26.5561 
G01 X-20.7882 Y26.7839 
G01 X-20.7852 Y26.8063 
G01 X-23.8494 Y30.8919 
G01 X-23.8565 Y30.8989 
G01 X-23.9111 Y30.9741 
G01 X-23.9668 Y31.0484 
G01 X-23.9715 Y31.0572 
G01 X-23.9773 Y31.0653 
G01 X-24.0195 Y31.1481 
G01 X-24.0629 Y31.2302 
G01 X-24.0662 Y31.2396 
G01 X-24.0707 Y31.2485 
G01 X-24.0994 Y31.3368 
G01 X-24.1294 Y31.4248 
G01 X-24.1311 Y31.4346 
G01 X-24.1342 Y31.4441 
G01 X-24.1488 Y31.5359 
G01 X-24.1647 Y31.6274 
G01 X-24.1648 Y31.6373 
G01 X-24.1664 Y31.6472 
G01 X-24.1664 Y31.7401 
G01 X-24.1678 Y31.8330 
G01 X-24.1664 Y31.8428 
G01 X-24.1664 Y39.9046 
G01 X-24.1342 Y40.1077 
G01 X-24.0707 Y40.3033 
G01 X-23.9773 Y40.4865 
G01 X-23.8565 Y40.6529 
G01 X-22.1096 Y42.3997 
G01 X-22.1568 Y42.5757 
G01 X-22.1852 Y42.7917 
G01 X-22.1852 Y43.0095 
G01 X-22.1568 Y43.2255 
G01 X-22.1004 Y43.4360 
G01 X-22.0170 Y43.6373 
G01 X-21.9081 Y43.8259 
G01 X-21.7754 Y43.9988 
G01 X-21.6214 Y44.1528 
G01 X-21.4485 Y44.2855 
G01 X-21.2599 Y44.3944 
G01 X-21.0586 Y44.4778 
G01 X-20.8481 Y44.5342 
G01 X-20.6321 Y44.5626 
G01 X-18.8903 Y44.5626 
G01 X-18.6743 Y44.5342 
G01 X-18.4638 Y44.4778 
G01 X-18.2625 Y44.3944 
G01 X-18.0739 Y44.2855 
G01 X-17.9716 Y44.2070 
G01 X-15.0484 Y44.2070 
G01 X-14.9461 Y44.2855 
G01 X-14.7575 Y44.3944 
G01 X-14.5562 Y44.4778 
G01 X-14.3457 Y44.5342 
G01 X-14.1297 Y44.5626 
G01 X-12.3879 Y44.5626 
G01 X-12.1719 Y44.5342 
G01 X-11.9614 Y44.4778 
G01 X-11.7601 Y44.3944 
G01 X-11.5715 Y44.2855 
G01 X-11.4692 Y44.2070 
G01 X-11.1660 Y44.2070 
G01 X-11.1548 Y44.2086 
G01 X-11.0631 Y44.2070 
G01 X-10.9716 Y44.2070 
G01 X-10.9605 Y44.2052 
G01 X-10.9492 Y44.2050 
G01 X-10.8589 Y44.1892 
G01 X-10.7685 Y44.1748 
G01 X-10.7578 Y44.1713 
G01 X-10.7467 Y44.1694 
G01 X-10.6600 Y44.1396 
G01 X-10.5729 Y44.1113 
G01 X-10.5629 Y44.1062 
G01 X-10.5522 Y44.1025 
G01 X-10.4713 Y44.0595 
G01 X-10.3897 Y44.0179 
G01 X-10.3806 Y44.0113 
G01 X-10.3706 Y44.0060 
G01 X-10.2973 Y43.9508 
G01 X-10.2233 Y43.8971 
G01 X-10.2154 Y43.8891 
G01 X-10.2064 Y43.8823 
G01 X-10.1426 Y43.8163 
G01 X-10.0779 Y43.7517 
G01 X-10.0713 Y43.7426 
G01 X-8.7070 Y42.3307 
G01 X-8.5576 Y42.3110 
G01 X-8.3423 Y42.2533 
G01 X-8.1364 Y42.1680 
G01 X-7.9434 Y42.0566 
G01 X-7.7998 Y41.9464 
G01 X-7.5172 Y41.9464 
G01 X-7.3141 Y41.9142 
G01 X-7.1185 Y41.8507 
G01 X-6.9353 Y41.7573 
G01 X-6.7689 Y41.6365 
G01 X-6.6235 Y41.4911 
G01 X-2.9735 Y37.8411 
G01 X-2.8527 Y37.6747 
G01 X-2.7593 Y37.4915 
G01 X-2.6958 Y37.2959 
G01 X-2.6636 Y37.0928 
G01 X-2.6636 Y13.5457 
G01 X-2.6409 Y13.5145 
G01 X-2.5299 Y13.2965 
G01 X-2.4543 Y13.0639 
G01 X-2.4160 Y12.8223 
G01 X-2.4160 Y12.5777 
G01 X-2.4543 Y12.3361 
G01 X-2.5299 Y12.1035 
G01 X-2.6409 Y11.8855 
G01 X-2.7847 Y11.6876 
G00 Z2.5400  
G00 X-9.5553 Y11.8440 
G01 Z-0.1500 F254   
G01 X-9.7636 Y11.4568 F400   
G01 X-10.0058 Y11.0899 
G01 X-10.2799 Y10.7461 
G01 X-10.5838 Y10.4283 
G01 X-10.9149 Y10.1390 
G01 X-11.2706 Y9.8806  
G01 X-11.4711 Y9.7608  
G01 X-11.3338 Y9.6691  
G01 X-11.2084 Y9.5437  
G01 X-11.1099 Y9.3963  
G01 X-11.0421 Y9.2325  
G01 X-11.0075 Y9.0586  
G01 X-11.0075 Y8.9264  
G01 X-10.7011 Y8.9264  
G01 X-8.9264 Y10.7011 
G01 X-8.9264 Y15.3428 
G01 X-8.8942 Y15.5459 
G01 X-8.8307 Y15.7415 
G01 X-8.7373 Y15.9247 
G01 X-8.6165 Y16.0911 
G01 X-7.0214 Y17.6861 
G01 X-7.0214 Y22.5696 
G01 X-8.2663 Y22.5696 
G01 X-9.1804 Y23.4837 
G01 X-9.1804 Y24.7763 
G01 X-8.9264 Y25.0303 
G01 X-8.9264 Y27.3989 
G01 X-10.7011 Y29.1736 
G01 X-15.3428 Y29.1736 
G01 X-15.5459 Y29.2058 
G01 X-15.7415 Y29.2693 
G01 X-15.9247 Y29.3627 
G01 X-16.0911 Y29.4835 
G01 X-16.2365 Y29.6289 
G01 X-17.5065 Y30.8989 
G01 X-17.6273 Y31.0653 
G01 X-17.7207 Y31.2485 
G01 X-17.7842 Y31.4441 
G01 X-17.8164 Y31.6472 
G01 X-17.8164 Y32.6414 
G01 X-17.9493 Y32.5864 
G01 X-18.1232 Y32.5518 
G01 X-19.9768 Y32.5518 
G01 X-20.1507 Y32.5864 
G01 X-20.3145 Y32.6542 
G01 X-20.4619 Y32.7527 
G01 X-20.5873 Y32.8781 
G01 X-20.6578 Y32.9836 
G01 X-21.5536 Y32.9836 
G01 X-21.5536 Y32.1855 
G01 X-18.6954 Y28.3745 
G01 X-18.4901 Y28.3195 
G01 X-18.2796 Y28.2323 
G01 X-18.0822 Y28.1184 
G01 X-17.9015 Y27.9796 
G01 X-17.7800 Y27.8582 
G01 X-17.6585 Y27.9796 
G01 X-17.4778 Y28.1184 
G01 X-17.2804 Y28.2323 
G01 X-17.0699 Y28.3195 
G01 X-16.8498 Y28.3785 
G01 X-16.6239 Y28.4082 
G01 X-16.3961 Y28.4082 
G01 X-16.1702 Y28.3785 
G01 X-15.9501 Y28.3195 
G01 X-15.7396 Y28.2323 
G01 X-15.5422 Y28.1184 
G01 X-15.3615 Y27.9796 
G01 X-15.2400 Y27.8582 
G01 X-15.1185 Y27.9796 
G01 X-14.9378 Y28.1184 
G01 X-14.7404 Y28.2323 
G01 X-14.5299 Y28.3195 
G01 X-14.3098 Y28.3785 
G01 X-14.0839 Y28.4082 
G01 X-13.8561 Y28.4082 
G01 X-13.6302 Y28.3785 
G01 X-13.4101 Y28.3195 
G01 X-13.1996 Y28.2323 
G01 X-13.0022 Y28.1184 
G01 X-12.8215 Y27.9796 
G01 X-12.7000 Y27.8582 
G01 X-12.5785 Y27.9796 
G01 X-12.3978 Y28.1184 
G01 X-12.2004 Y28.2323 
G01 X-11.9899 Y28.3195 
G01 X-11.7698 Y28.3785 
G01 X-11.5439 Y28.4082 
G01 X-11.3161 Y28.4082 
G01 X-11.0902 Y28.3785 
G01 X-10.8701 Y28.3195 
G01 X-10.6596 Y28.2323 
G01 X-10.4622 Y28.1184 
G01 X-10.2815 Y27.9796 
G01 X-10.1203 Y27.8185 
G01 X-9.9816 Y27.6378 
G01 X-9.8677 Y27.4404 
G01 X-9.7805 Y27.2299 
G01 X-9.7215 Y27.0098 
G01 X-9.6918 Y26.7839 
G01 X-9.6918 Y26.5561 
G01 X-9.7215 Y26.3302 
G01 X-9.7805 Y26.1101 
G01 X-9.8677 Y25.8996 
G01 X-9.9816 Y25.7022 
G01 X-10.1203 Y25.5215 
G01 X-10.1236 Y25.5182 
G01 X-10.1236 Y21.0947 
G01 X-10.1558 Y20.8916 
G01 X-10.2193 Y20.6960 
G01 X-10.3127 Y20.5128 
G01 X-10.4335 Y20.3464 
G01 X-11.0075 Y19.7725 
G01 X-11.0075 Y18.8814 
G01 X-11.0421 Y18.7075 
G01 X-11.1099 Y18.5437 
G01 X-11.2084 Y18.3963 
G01 X-11.3338 Y18.2709 
G01 X-11.4711 Y18.1792 
G01 X-11.2706 Y18.0594 
G01 X-10.9149 Y17.8010 
G01 X-10.5838 Y17.5117 
G01 X-10.2799 Y17.1939 
G01 X-10.0058 Y16.8501 
G01 X-9.7636 Y16.4832 
G01 X-9.5553 Y16.0960 
G01 X-9.3825 Y15.6917 
G01 X-9.2466 Y15.2736 
G01 X-9.1487 Y14.8449 
G01 X-9.0897 Y14.4092 
G01 X-9.0700 Y13.9700 
G01 X-9.0897 Y13.5308 
G01 X-9.1487 Y13.0951 
G01 X-9.2466 Y12.6664 
G01 X-9.3825 Y12.2483 
G01 X-9.5553 Y11.8440 
G00 Z2.5400  
G00 X-9.4753 Y31.5973 
G01 Z-0.1500 F254   
G01 X-9.3089 Y31.4765 F400   
G01 X-9.1635 Y31.3311 
G01 X-7.0214 Y29.1889 
G01 X-7.0214 Y31.8439 
G01 X-7.9071 Y32.7296 
G01 X-8.2663 Y32.7296 
G01 X-8.5203 Y32.9836 
G01 X-10.2782 Y32.9836 
G01 X-10.2815 Y32.9803 
G01 X-10.4622 Y32.8416 
G01 X-10.6596 Y32.7277 
G01 X-10.8701 Y32.6405 
G01 X-11.0902 Y32.5815 
G01 X-11.3161 Y32.5518 
G01 X-11.5439 Y32.5518 
G01 X-11.7698 Y32.5815 
G01 X-11.9899 Y32.6405 
G01 X-12.2004 Y32.7277 
G01 X-12.3978 Y32.8416 
G01 X-12.5785 Y32.9803 
G01 X-12.7000 Y33.1018 
G01 X-12.8215 Y32.9803 
G01 X-13.0022 Y32.8416 
G01 X-13.1996 Y32.7277 
G01 X-13.4101 Y32.6405 
G01 X-13.6302 Y32.5815 
G01 X-13.8561 Y32.5518 
G01 X-14.0839 Y32.5518 
G01 X-14.3098 Y32.5815 
G01 X-14.5299 Y32.6405 
G01 X-14.7404 Y32.7277 
G01 X-14.9378 Y32.8416 
G01 X-15.1185 Y32.9803 
G01 X-15.2036 Y33.0654 
G01 X-15.2036 Y32.2911 
G01 X-14.6989 Y31.7864 
G01 X-10.0572 Y31.7864 
G01 X-9.8541 Y31.7542 
G01 X-9.6585 Y31.6907 
G01 X-9.4753 Y31.5973 
G00 Z2.5400  
G00 X-8.9264 Y35.5964 
G01 Z-0.1500 F254   
G01 X-8.9264 Y36.2889 F400   
G01 X-9.0374 Y36.3999 
G01 X-9.5942 Y36.3999 
G01 X-10.5901 Y37.3958 
G01 X-10.5901 Y38.8042 
G01 X-10.0243 Y39.3700 
G01 X-10.1709 Y39.5166 
G01 X-10.3066 Y39.6934 
G01 X-10.4180 Y39.8865 
G01 X-10.5033 Y40.0923 
G01 X-10.5610 Y40.3076 
G01 X-10.5887 Y40.5179 
G01 X-11.5608 Y41.5239 
G01 X-11.5715 Y41.5157 
G01 X-11.7601 Y41.4068 
G01 X-11.9614 Y41.3234 
G01 X-12.1719 Y41.2670 
G01 X-12.3879 Y41.2386 
G01 X-14.1297 Y41.2386 
G01 X-14.3457 Y41.2670 
G01 X-14.5562 Y41.3234 
G01 X-14.7575 Y41.4068 
G01 X-14.9461 Y41.5157 
G01 X-15.0484 Y41.5942 
G01 X-17.9716 Y41.5942 
G01 X-18.0739 Y41.5157 
G01 X-18.2625 Y41.4068 
G01 X-18.4638 Y41.3234 
G01 X-18.6743 Y41.2670 
G01 X-18.8903 Y41.2386 
G01 X-19.5757 Y41.2386 
G01 X-20.7942 Y40.0201 
G01 X-20.6321 Y40.0414 
G01 X-18.8903 Y40.0414 
G01 X-18.6743 Y40.0130 
G01 X-18.4638 Y39.9566 
G01 X-18.2625 Y39.8732 
G01 X-18.0739 Y39.7643 
G01 X-17.9716 Y39.6858 
G01 X-15.0484 Y39.6858 
G01 X-14.9461 Y39.7643 
G01 X-14.7575 Y39.8732 
G01 X-14.5562 Y39.9566 
G01 X-14.3457 Y40.0130 
G01 X-14.1297 Y40.0414 
G01 X-12.3879 Y40.0414 
G01 X-12.1719 Y40.0130 
G01 X-11.9614 Y39.9566 
G01 X-11.7601 Y39.8732 
G01 X-11.5715 Y39.7643 
G01 X-11.3986 Y39.6316 
G01 X-11.2446 Y39.4776 
G01 X-11.1119 Y39.3047 
G01 X-11.0030 Y39.1161 
G01 X-10.9196 Y38.9148 
G01 X-10.8632 Y38.7043 
G01 X-10.8348 Y38.4883 
G01 X-10.8348 Y38.2705 
G01 X-10.8632 Y38.0545 
G01 X-10.9196 Y37.8440 
G01 X-11.0030 Y37.6427 
G01 X-11.1119 Y37.4541 
G01 X-11.2446 Y37.2812 
G01 X-11.3986 Y37.1272 
G01 X-11.5715 Y36.9945 
G01 X-11.7601 Y36.8856 
G01 X-11.9614 Y36.8022 
G01 X-12.1719 Y36.7458 
G01 X-12.3879 Y36.7174 
G01 X-13.4757 Y36.7174 
G01 X-15.2036 Y35.6644 
G01 X-15.2036 Y35.5146 
G01 X-15.1185 Y35.5996 
G01 X-14.9378 Y35.7384 
G01 X-14.7404 Y35.8523 
G01 X-14.5299 Y35.9395 
G01 X-14.3098 Y35.9985 
G01 X-14.0839 Y36.0282 
G01 X-13.8561 Y36.0282 
G01 X-13.6302 Y35.9985 
G01 X-13.4101 Y35.9395 
G01 X-13.1996 Y35.8523 
G01 X-13.0022 Y35.7384 
G01 X-12.8215 Y35.5996 
G01 X-12.7000 Y35.4782 
G01 X-12.5785 Y35.5996 
G01 X-12.3978 Y35.7384 
G01 X-12.2004 Y35.8523 
G01 X-11.9899 Y35.9395 
G01 X-11.7698 Y35.9985 
G01 X-11.5439 Y36.0282 
G01 X-11.3161 Y36.0282 
G01 X-11.0902 Y35.9985 
G01 X-10.8701 Y35.9395 
G01 X-10.6596 Y35.8523 
G01 X-10.4622 Y35.7384 
G01 X-10.2815 Y35.5996 
G01 X-10.2782 Y35.5964 
G01 X-8.9264 Y35.5964 
G00 Z2.5400  
G00 X-6.3136 Y35.1903 
G01 Z-0.1500 F254   
G01 X-6.0596 Y34.9363 F400   
G01 X-6.0596 Y34.5771 
G01 X-5.2764 Y33.7939 
G01 X-5.2764 Y36.4489 
G01 X-7.1899 Y38.3624 
G01 X-7.1899 Y38.2474 
G01 X-6.6235 Y37.6811 
G01 X-6.5027 Y37.5147 
G01 X-6.4093 Y37.3315 
G01 X-6.3458 Y37.1359 
G01 X-6.3136 Y36.9328 
G01 X-6.3136 Y35.1903 
G00 Z2.5400  
G00 X-17.8164 Y35.9386 
G01 Z-0.1500 F254   
G01 X-17.8164 Y36.3485 F400   
G01 X-17.8204 Y36.4015 
G01 X-17.8164 Y36.4511 
G01 X-17.8164 Y36.5010 
G01 X-17.8081 Y36.5535 
G01 X-17.8038 Y36.6064 
G01 X-17.7920 Y36.6549 
G01 X-17.7842 Y36.7041 
G01 X-17.7678 Y36.7546 
G01 X-17.7553 Y36.8063 
G01 X-17.7361 Y36.8523 
G01 X-17.7207 Y36.8997 
G01 X-17.6966 Y36.9470 
G01 X-17.6761 Y36.9960 
G01 X-17.6500 Y37.0385 
G01 X-17.6324 Y37.0730 
G01 X-17.9716 Y37.0730 
G01 X-18.0739 Y36.9945 
G01 X-18.2625 Y36.8856 
G01 X-18.4638 Y36.8022 
G01 X-18.6743 Y36.7458 
G01 X-18.8903 Y36.7174 
G01 X-20.6321 Y36.7174 
G01 X-20.8481 Y36.7458 
G01 X-21.0586 Y36.8022 
G01 X-21.2599 Y36.8856 
G01 X-21.4485 Y36.9945 
G01 X-21.5536 Y37.0752 
G01 X-21.5536 Y35.5964 
G01 X-20.6578 Y35.5964 
G01 X-20.5873 Y35.7019 
G01 X-20.4619 Y35.8273 
G01 X-20.3145 Y35.9258 
G01 X-20.1507 Y35.9936 
G01 X-19.9768 Y36.0282 
G01 X-18.1232 Y36.0282 
G01 X-17.9493 Y35.9936 
G01 X-17.8164 Y35.9386 
G00 Z2.5400  
G00 X-15.4519 Y45.9984 
G01 Z-0.1500 F254   
G01 X-15.5966 Y46.1431 F400   
G01 X-16.2316 Y46.7781 
G01 X-16.3519 Y46.9436 
G01 X-16.4448 Y47.1260 
G01 X-16.5080 Y47.3206 
G01 X-16.5400 Y47.5227 
G01 X-16.5400 Y48.9973 
G01 X-16.5080 Y49.1994 
G01 X-16.4448 Y49.3940 
G01 X-16.3519 Y49.5763 
G01 X-16.2316 Y49.7419 
G01 X-16.0869 Y49.8866 
G01 X-15.4519 Y50.5216 
G01 X-15.2863 Y50.6419 
G01 X-15.1040 Y50.7348 
G01 X-14.9094 Y50.7980 
G01 X-14.7073 Y50.8300 
G01 X-14.5027 Y50.8300 
G01 X-13.8677 Y50.8300 
G01 X-13.6656 Y50.7980 
G01 X-13.4710 Y50.7348 
G01 X-13.2887 Y50.6419 
G01 X-13.1231 Y50.5216 
G01 X-12.9784 Y50.3769 
G01 X-12.8581 Y50.2113 
G01 X-12.7652 Y50.0290 
G01 X-12.7020 Y49.8344 
G01 X-12.6700 Y49.6323 
G01 X-12.6700 Y49.5600 
G01 X-12.5977 Y49.5600 
G01 X-12.3956 Y49.5280 
G01 X-12.2010 Y49.4648 
G01 X-12.0186 Y49.3719 
G01 X-11.8531 Y49.2516 
G01 X-11.7084 Y49.1069 
G01 X-11.5881 Y48.9413 
G01 X-11.4952 Y48.7590 
G01 X-11.4320 Y48.5644 
G01 X-11.4000 Y48.3623 
G01 X-11.4000 Y47.5227 
G01 X-11.4320 Y47.3206 
G01 X-11.4952 Y47.1260 
G01 X-11.5881 Y46.9436 
G01 X-11.7084 Y46.7781 
G01 X-11.8531 Y46.6334 
G01 X-12.4881 Y45.9984 
G01 X-12.6537 Y45.8781 
G01 X-12.8360 Y45.7852 
G01 X-13.0306 Y45.7220 
G01 X-13.2327 Y45.6900 
G01 X-14.7073 Y45.6900 
G01 X-14.9094 Y45.7220 
G01 X-15.1040 Y45.7852 
G01 X-15.2863 Y45.8781 
G01 X-15.4519 Y45.9984 
G00 Z2.5400  
G00 X-2.4224 Y11.3428 
G01 Z-0.1500 F254   
G01 X-2.6128 Y11.1524 F400   
G01 X-2.8264 Y10.9885 
G01 X-3.0596 Y10.8539 
G01 X-3.3083 Y10.7508 
G01 X-3.5684 Y10.6811 
G01 X-3.8354 Y10.6460 
G01 X-4.1046 Y10.6460 
G01 X-4.3716 Y10.6811 
G01 X-4.6317 Y10.7508 
G01 X-4.8804 Y10.8539 
G01 X-5.1136 Y10.9885 
G01 X-5.3272 Y11.1524 
G01 X-5.5176 Y11.3428 
G01 X-5.6815 Y11.5564 
G01 X-5.8136 Y11.7852 
G01 X-5.8136 Y10.0416 
G01 X-5.8445 Y9.8068  
G01 X-5.9058 Y9.5781  
G01 X-5.9964 Y9.3593  
G01 X-6.1148 Y9.1543  
G01 X-6.2590 Y8.9664  
G01 X-6.4264 Y8.7990  
G01 X-8.9664 Y6.2590  
G01 X-9.1543 Y6.1148  
G01 X-9.3593 Y5.9964  
G01 X-9.5781 Y5.9058  
G01 X-9.8068 Y5.8445  
G01 X-10.0416 Y5.8136  
G01 X-10.6707 Y5.8136  
G01 X-10.7101 Y5.7362  
G01 X-10.8396 Y5.5580  
G01 X-10.9955 Y5.4021  
G01 X-11.1737 Y5.2726  
G01 X-11.3701 Y5.1726  
G01 X-11.5797 Y5.1045  
G01 X-11.7973 Y5.0700  
G01 X-13.0177 Y5.0700  
G01 X-13.1888 Y5.0971  
G01 X-13.3598 Y5.0700  
G01 X-14.5802 Y5.0700  
G01 X-14.7512 Y5.0971  
G01 X-14.9223 Y5.0700  
G01 X-16.1427 Y5.0700  
G01 X-16.3603 Y5.1045  
G01 X-16.5699 Y5.1726  
G01 X-16.7663 Y5.2726  
G01 X-16.9445 Y5.4021  
G01 X-17.1004 Y5.5580  
G01 X-17.2299 Y5.7362  
G01 X-17.2693 Y5.8136  
G01 X-17.8984 Y5.8136  
G01 X-18.1332 Y5.8445  
G01 X-18.3619 Y5.9058  
G01 X-18.5807 Y5.9964  
G01 X-18.7857 Y6.1148  
G01 X-18.9736 Y6.2590  
G01 X-19.1410 Y6.4264  
G01 X-23.3606 Y10.6460 
G01 X-24.7342 Y10.6460 
G01 X-24.9518 Y10.6805 
G01 X-25.1614 Y10.7486 
G01 X-25.3578 Y10.8486 
G01 X-25.5360 Y10.9781 
G01 X-25.6919 Y11.1340 
G01 X-25.8214 Y11.3122 
G01 X-25.9214 Y11.5086 
G01 X-25.9895 Y11.7182 
G01 X-26.0240 Y11.9358 
G01 X-26.0240 Y13.4642 
G01 X-25.9895 Y13.6818 
G01 X-25.9214 Y13.8914 
G01 X-25.8214 Y14.0878 
G01 X-25.6919 Y14.2660 
G01 X-25.5360 Y14.4219 
G01 X-25.3578 Y14.5514 
G01 X-25.1614 Y14.6514 
G01 X-24.9518 Y14.7195 
G01 X-24.7342 Y14.7540 
G01 X-23.2058 Y14.7540 
G01 X-22.9882 Y14.7195 
G01 X-22.7786 Y14.6514 
G01 X-22.5822 Y14.5514 
G01 X-22.4608 Y14.4632 
G01 X-22.2781 Y14.4142 
G01 X-22.0593 Y14.3236 
G01 X-21.8543 Y14.2052 
G01 X-21.6664 Y14.0610 
G01 X-18.0863 Y10.4809 
G01 X-18.1714 Y10.5776 
G01 X-18.4440 Y10.9461 
G01 X-18.6843 Y11.3364 
G01 X-18.8906 Y11.7457 
G01 X-19.0615 Y12.1710 
G01 X-19.1958 Y12.6093 
G01 X-19.2923 Y13.0574 
G01 X-19.3505 Y13.5120 
G01 X-19.3700 Y13.9700 
G01 X-19.3505 Y14.4280 
G01 X-19.2923 Y14.8826 
G01 X-19.1958 Y15.3307 
G01 X-19.0615 Y15.7690 
G01 X-18.8906 Y16.1943 
G01 X-18.6843 Y16.6035 
G01 X-18.4440 Y16.9939 
G01 X-18.1714 Y17.3624 
G01 X-17.8686 Y17.7065 
G01 X-17.5376 Y18.0236 
G01 X-17.2428 Y18.2617 
G01 X-17.3299 Y18.4326 
G01 X-17.3980 Y18.6422 
G01 X-17.4325 Y18.8598 
G01 X-17.4325 Y19.5654 
G01 X-17.8710 Y20.0039 
G01 X-18.0152 Y20.1918 
G01 X-18.1336 Y20.3968 
G01 X-18.2242 Y20.6156 
G01 X-18.2855 Y20.8443 
G01 X-18.3164 Y21.0791 
G01 X-18.3164 Y24.5513 
G01 X-18.3290 Y24.5460 
G01 X-18.6124 Y24.4701 
G01 X-18.9033 Y24.4318 
G01 X-19.1967 Y24.4318 
G01 X-19.4876 Y24.4701 
G01 X-19.7710 Y24.5460 
G01 X-20.0421 Y24.6583 
G01 X-20.2961 Y24.8050 
G01 X-20.5289 Y24.9836 
G01 X-20.7364 Y25.1911 
G01 X-20.9150 Y25.4239 
G01 X-21.0617 Y25.6779 
G01 X-21.1740 Y25.9490 
G01 X-21.2499 Y26.2324 
G01 X-21.2882 Y26.5233 
G01 X-21.2882 Y26.6436 
G01 X-24.2991 Y30.6581 
G01 X-24.3652 Y30.7443 
G01 X-24.3702 Y30.7529 
G01 X-24.3762 Y30.7609 
G01 X-24.4293 Y30.8553 
G01 X-24.4836 Y30.9493 
G01 X-24.4874 Y30.9586 
G01 X-24.4923 Y30.9672 
G01 X-24.5326 Y31.0678 
G01 X-24.5742 Y31.1681 
G01 X-24.5768 Y31.1778 
G01 X-24.5805 Y31.1870 
G01 X-24.6074 Y31.2921 
G01 X-24.6355 Y31.3968 
G01 X-24.6368 Y31.4067 
G01 X-24.6393 Y31.4164 
G01 X-24.6523 Y31.5242 
G01 X-24.6664 Y31.6316 
G01 X-24.6664 Y31.6416 
G01 X-24.6676 Y31.6515 
G01 X-24.6664 Y31.7599 
G01 X-24.6664 Y39.9202 
G01 X-24.6355 Y40.1550 
G01 X-24.5742 Y40.3837 
G01 X-24.4836 Y40.6025 
G01 X-24.3652 Y40.8075 
G01 X-24.2210 Y40.9954 
G01 X-22.6587 Y42.5577 
G01 X-22.6852 Y42.7589 
G01 X-22.6852 Y43.0423 
G01 X-22.6482 Y43.3233 
G01 X-22.5749 Y43.5970 
G01 X-22.4664 Y43.8589 
G01 X-22.3247 Y44.1043 
G01 X-22.1522 Y44.3292 
G01 X-21.9518 Y44.5296 
G01 X-21.7269 Y44.7021 
G01 X-21.4815 Y44.8438 
G01 X-21.2196 Y44.9523 
G01 X-20.9459 Y45.0256 
G01 X-20.6649 Y45.0626 
G01 X-18.8575 Y45.0626 
G01 X-18.5765 Y45.0256 
G01 X-18.3028 Y44.9523 
G01 X-18.0409 Y44.8438 
G01 X-17.8040 Y44.7070 
G01 X-15.2160 Y44.7070 
G01 X-14.9791 Y44.8438 
G01 X-14.7172 Y44.9523 
G01 X-14.4435 Y45.0256 
G01 X-14.1625 Y45.0626 
G01 X-12.3551 Y45.0626 
G01 X-12.0741 Y45.0256 
G01 X-11.8004 Y44.9523 
G01 X-11.5385 Y44.8438 
G01 X-11.3016 Y44.7070 
G01 X-11.1772 Y44.7070 
G01 X-11.1618 Y44.7088 
G01 X-11.0589 Y44.7070 
G01 X-10.9560 Y44.7070 
G01 X-10.9406 Y44.7050 
G01 X-10.9251 Y44.7047 
G01 X-10.8232 Y44.6895 
G01 X-10.7212 Y44.6761 
G01 X-10.7062 Y44.6721 
G01 X-10.6908 Y44.6698 
G01 X-10.5919 Y44.6414 
G01 X-10.4925 Y44.6148 
G01 X-10.4781 Y44.6088 
G01 X-10.4632 Y44.6046 
G01 X-10.3689 Y44.5636 
G01 X-10.2737 Y44.5242 
G01 X-10.2603 Y44.5164 
G01 X-10.2460 Y44.5102 
G01 X-10.1578 Y44.4572 
G01 X-10.0687 Y44.4058 
G01 X-10.0563 Y44.3963 
G01 X-10.0430 Y44.3883 
G01 X-9.9624 Y44.3243 
G01 X-9.8808 Y44.2616 
G01 X-9.8698 Y44.2507 
G01 X-9.8576 Y44.2410 
G01 X-9.7861 Y44.1669 
G01 X-9.7134 Y44.0942 
G01 X-9.7039 Y44.0819 
G01 X-8.4687 Y42.8036 
G01 X-8.4599 Y42.8025 
G01 X-8.1813 Y42.7278 
G01 X-7.9148 Y42.6174 
G01 X-7.6651 Y42.4732 
G01 X-7.6301 Y42.4464 
G01 X-7.5016 Y42.4464 
G01 X-7.2668 Y42.4155 
G01 X-7.0381 Y42.3542 
G01 X-6.8193 Y42.2636 
G01 X-6.6143 Y42.1452 
G01 X-6.4264 Y42.0010 
G01 X-6.2590 Y41.8336 
G01 X-2.6090 Y38.1836 
G01 X-2.4648 Y37.9957 
G01 X-2.3464 Y37.7907 
G01 X-2.2558 Y37.5719 
G01 X-2.1945 Y37.3432 
G01 X-2.1636 Y37.1084 
G01 X-2.1636 Y13.6792 
G01 X-2.1239 Y13.6104 
G01 X-2.0208 Y13.3617 
G01 X-1.9511 Y13.1016 
G01 X-1.9160 Y12.8346 
G01 X-1.9160 Y12.5654 
G01 X-1.9511 Y12.2984 
G01 X-2.0208 Y12.0383 
G01 X-2.1239 Y11.7896 
G01 X-2.2585 Y11.5564 
G01 X-2.4224 Y11.3428 
G00 Z2.5400  
G00 X-5.8136 Y13.6148 
G01 Z-0.1500 F254   
G01 X-5.7764 Y13.6792 F400   
G01 X-5.7764 Y14.5290 
G01 X-5.8136 Y14.4918 
G01 X-5.8136 Y13.6148 
G00 Z2.5400  
G00 X-9.0951 Y16.2850 
G01 Z-0.1500 F254   
G01 X-8.9810 Y16.4336 F400   
G01 X-7.5214 Y17.8932 
G01 X-7.5214 Y22.0696 
G01 X-8.4734 Y22.0696 
G01 X-9.6236 Y23.2198 
G01 X-9.6236 Y21.0791 
G01 X-9.6545 Y20.8443 
G01 X-9.7158 Y20.6156 
G01 X-9.8064 Y20.3968 
G01 X-9.9248 Y20.1918 
G01 X-10.0690 Y20.0039 
G01 X-10.5075 Y19.5654 
G01 X-10.5075 Y18.8598 
G01 X-10.5420 Y18.6422 
G01 X-10.6101 Y18.4326 
G01 X-10.6972 Y18.2617 
G01 X-10.4024 Y18.0236 
G01 X-10.0714 Y17.7065 
G01 X-9.7686 Y17.3624 
G01 X-9.4960 Y16.9939 
G01 X-9.2557 Y16.6035 
G01 X-9.0951 Y16.2850 
G00 Z2.5400  
G00 X-9.4264 Y11.0593 
G01 Z-0.1500 F254   
G01 X-9.4960 Y10.9461 F400   
G01 X-9.7686 Y10.5776 
G01 X-9.8537 Y10.4809 
G01 X-9.4264 Y10.9082 
G01 X-9.4264 Y11.0593 
G00 Z2.5400  
G00 X-10.4849 Y9.8497  
G01 Z-0.1500 F254   
G01 X-10.6972 Y9.6783  F400   
G01 X-10.6834 Y9.6513  
G01 X-10.4849 Y9.8497  
G00 Z2.5400  
G00 X-17.2428 Y9.6783  
G01 Z-0.1500 F254   
G01 X-17.4551 Y9.8497  F400   
G01 X-17.2566 Y9.6513  
G01 X-17.2428 Y9.6783  
G00 Z2.5400  
G00 X-17.2310 Y28.7940 
G01 Z-0.1500 F254   
G01 X-16.9476 Y28.8699 F400   
G01 X-16.6567 Y28.9082 
G01 X-16.3633 Y28.9082 
G01 X-16.0724 Y28.8699 
G01 X-16.0568 Y28.8657 
G01 X-16.2457 Y28.9748 
G01 X-16.4336 Y29.1190 
G01 X-16.6010 Y29.2864 
G01 X-17.8710 Y30.5564 
G01 X-18.0152 Y30.7443 
G01 X-18.1336 Y30.9493 
G01 X-18.2242 Y31.1681 
G01 X-18.2855 Y31.3968 
G01 X-18.3164 Y31.6316 
G01 X-18.3164 Y31.8684 
G01 X-18.3164 Y32.0518 
G01 X-19.9984 Y32.0518 
G01 X-20.2160 Y32.0863 
G01 X-20.4256 Y32.1544 
G01 X-20.6220 Y32.2544 
G01 X-20.8002 Y32.3839 
G01 X-20.8999 Y32.4836 
G01 X-21.0536 Y32.4836 
G01 X-21.0536 Y32.3521 
G01 X-18.3990 Y28.8127 
G01 X-18.3290 Y28.7940 
G01 X-18.0579 Y28.6817 
G01 X-17.8039 Y28.5350 
G01 X-17.7800 Y28.5167 
G01 X-17.7561 Y28.5350 
G01 X-17.5021 Y28.6817 
G01 X-17.2310 Y28.7940 
G00 Z2.5400  
G00 X-15.5637 Y28.7006 
G01 Z-0.1500 F254   
G01 X-15.5179 Y28.6817 F400   
G01 X-15.2639 Y28.5350 
G01 X-15.2400 Y28.5167 
G01 X-15.2161 Y28.5350 
G01 X-14.9761 Y28.6736 
G01 X-15.3584 Y28.6736 
G01 X-15.5637 Y28.7006 
G00 Z2.5400  
G00 X-12.9639 Y28.6736 
G01 Z-0.1500 F254   
G01 X-12.7239 Y28.5350 F400   
G01 X-12.7000 Y28.5167 
G01 X-12.6761 Y28.5350 
G01 X-12.4360 Y28.6736 
G01 X-12.9639 Y28.6736 
G00 Z2.5400  
G00 X-12.9639 Y32.2864 
G01 Z-0.1500 F254   
G01 X-12.4360 Y32.2864 F400   
G01 X-12.6761 Y32.4250 
G01 X-12.7000 Y32.4433 
G01 X-12.7239 Y32.4250 
G01 X-12.9639 Y32.2864 
G00 Z2.5400  
G00 X-10.4239 Y32.2864 
G01 Z-0.1500 F254   
G01 X-10.0416 Y32.2864 F400   
G01 X-9.8068 Y32.2555 
G01 X-9.5781 Y32.1942 
G01 X-9.3593 Y32.1036 
G01 X-9.1543 Y31.9852 
G01 X-8.9664 Y31.8410 
G01 X-8.7990 Y31.6736 
G01 X-7.5214 Y30.3960 
G01 X-7.5214 Y31.6368 
G01 X-8.1142 Y32.2296 
G01 X-8.4734 Y32.2296 
G01 X-8.7274 Y32.4836 
G01 X-10.1075 Y32.4836 
G01 X-10.1839 Y32.4250 
G01 X-10.4239 Y32.2864 
G00 Z2.5400  
G00 X-10.4379 Y36.3017 
G01 Z-0.1500 F254   
G01 X-10.1839 Y36.1550 F400   
G01 X-10.1075 Y36.0964 
G01 X-9.9978 Y36.0964 
G01 X-10.8611 Y36.9597 
G01 X-10.8678 Y36.9508 
G01 X-11.0682 Y36.7504 
G01 X-11.2931 Y36.5779 
G01 X-11.3792 Y36.5282 
G01 X-11.2833 Y36.5282 
G01 X-10.9924 Y36.4899 
G01 X-10.7090 Y36.4140 
G01 X-10.4379 Y36.3017 
G00 Z2.5400  
G00 X-12.5680 Y36.2174 
G01 Z-0.1500 F254   
G01 X-12.8320 Y36.2174 F400   
G01 X-12.7239 Y36.1550 
G01 X-12.7000 Y36.1367 
G01 X-12.6761 Y36.1550 
G01 X-12.5680 Y36.2174 
G00 Z2.5400  
G00 X-12.3551 Y40.5414 
G01 Z-0.1500 F254   
G01 X-12.0741 Y40.5044 F400   
G01 X-11.8004 Y40.4311 
G01 X-11.5385 Y40.3226 
G01 X-11.2931 Y40.1809 
G01 X-11.0682 Y40.0084 
G01 X-10.9684 Y39.9085 
G01 X-10.9778 Y39.9313 
G01 X-11.0525 Y40.2099 
G01 X-11.0629 Y40.2891 
G01 X-11.6600 Y40.9071 
G01 X-11.8004 Y40.8489 
G01 X-12.0741 Y40.7756 
G01 X-12.3551 Y40.7386 
G01 X-14.1625 Y40.7386 
G01 X-14.4435 Y40.7756 
G01 X-14.7172 Y40.8489 
G01 X-14.9791 Y40.9574 
G01 X-15.2160 Y41.0942 
G01 X-17.8040 Y41.0942 
G01 X-18.0409 Y40.9574 
G01 X-18.3028 Y40.8489 
G01 X-18.5765 Y40.7756 
G01 X-18.8575 Y40.7386 
G01 X-19.3686 Y40.7386 
G01 X-19.5658 Y40.5414 
G01 X-18.8575 Y40.5414 
G01 X-18.5765 Y40.5044 
G01 X-18.3028 Y40.4311 
G01 X-18.0409 Y40.3226 
G01 X-17.8040 Y40.1858 
G01 X-15.2160 Y40.1858 
G01 X-14.9791 Y40.3226 
G01 X-14.7172 Y40.4311 
G01 X-14.4435 Y40.5044 
G01 X-14.1625 Y40.5414 
G01 X-12.3551 Y40.5414 
G00 Z2.5400  
G00 X-12.3328 Y45.4901 
G01 Z-0.1500 F254   
G01 X-12.5372 Y45.3722 F400   
G01 X-12.7552 Y45.2819 
G01 X-12.9831 Y45.2208 
G01 X-13.2170 Y45.1900 
G01 X-14.7230 Y45.1900 
G01 X-14.9569 Y45.2208 
G01 X-15.1848 Y45.2819 
G01 X-15.4028 Y45.3722 
G01 X-15.6072 Y45.4901 
G01 X-15.7944 Y45.6338 
G01 X-15.9612 Y45.8006 
G01 X-16.5962 Y46.4356 
G01 X-16.7399 Y46.6228 
G01 X-16.8578 Y46.8272 
G01 X-16.9481 Y47.0452 
G01 X-17.0092 Y47.2731 
G01 X-17.0400 Y47.5070 
G01 X-17.0400 Y49.0130 
G01 X-17.0092 Y49.2469 
G01 X-16.9481 Y49.4748 
G01 X-16.8578 Y49.6928 
G01 X-16.7399 Y49.8972 
G01 X-16.5962 Y50.0844 
G01 X-16.4294 Y50.2512 
G01 X-15.7944 Y50.8862 
G01 X-15.6072 Y51.0299 
G01 X-15.4028 Y51.1478 
G01 X-15.1848 Y51.2381 
G01 X-14.9569 Y51.2992 
G01 X-14.7230 Y51.3300 
G01 X-14.4870 Y51.3300 
G01 X-13.8520 Y51.3300 
G01 X-13.6181 Y51.2992 
G01 X-13.3902 Y51.2381 
G01 X-13.1722 Y51.1478 
G01 X-12.9678 Y51.0299 
G01 X-12.7806 Y50.8862 
G01 X-12.6138 Y50.7194 
G01 X-12.4701 Y50.5322 
G01 X-12.3522 Y50.3278 
G01 X-12.2619 Y50.1098 
G01 X-12.2319 Y49.9981 
G01 X-12.1202 Y49.9681 
G01 X-11.9022 Y49.8778 
G01 X-11.6978 Y49.7599 
G01 X-11.5106 Y49.6162 
G01 X-11.3438 Y49.4494 
G01 X-11.2001 Y49.2622 
G01 X-11.0822 Y49.0578 
G01 X-10.9919 Y48.8398 
G01 X-10.9308 Y48.6119 
G01 X-10.9000 Y48.3780 
G01 X-10.9000 Y47.5070 
G01 X-10.9308 Y47.2731 
G01 X-10.9919 Y47.0452 
G01 X-11.0822 Y46.8272 
G01 X-11.2001 Y46.6228 
G01 X-11.3438 Y46.4356 
G01 X-11.5106 Y46.2688 
G01 X-12.1456 Y45.6338 
G01 X-12.3328 Y45.4901 
G00 Z2.5400  
G00 X-5.8136 Y36.2790 
G01 Z-0.1500 F254   
G01 X-5.8136 Y35.3974 F400   
G01 X-5.7764 Y35.3602 
G01 X-5.7764 Y36.2418 
G01 X-5.8136 Y36.2790 
G00 Z2.5400  
G00 X-9.4264 Y25.6639 
G01 Z-0.1500 F254   
G01 X-9.5650 Y25.4239 F400   
G01 X-9.6236 Y25.3475 
G01 X-9.6236 Y25.0402 
G01 X-9.4264 Y25.2374 
G01 X-9.4264 Y25.6639 
G00 Z2.5400  
G00 X-20.7546 Y36.2292 
G01 Z-0.1500 F254   
G01 X-20.9459 Y36.2544 F400   
G01 X-21.0536 Y36.2833 
G01 X-21.0536 Y36.0964 
G01 X-20.8999 Y36.0964 
G01 X-20.8002 Y36.1961 
G01 X-20.7546 Y36.2292 
G00 Z2.5400  
G00 X-13.9700 Y48.2600 
G01 Z-0.3000 F508   
G00 Z2.5400  
G00 X-8.8900 Y40.6400 
G01 Z-0.3000 F508   
G00 Z2.5400  
G00 X-8.8900 Y38.1000 
G01 Z-0.3000 F508   
G00 Z2.5400  
G00 X-7.6200 Y24.1300 
G01 Z-0.3000 F508   
G00 Z2.5400  
G00 X-7.6200 Y34.2900 
G01 Z-0.3000 F508   
G00 Z2.5400  
G00 X-13.2588 Y42.9006 
G01 Z-0.3000 F508   
G00 Z2.5400  
G00 X-19.7612 Y42.9006 
G01 Z-0.3000 F508   
G00 Z2.5400  
G00 X-13.2588 Y38.3794 
G01 Z-0.3000 F508   
G00 Z2.5400  
G00 X-19.7612 Y38.3794 
G01 Z-0.3000 F508   
G00 Z2.5400  
G00 X-23.9700 Y12.7000 
G01 Z-0.3000 F508   
G00 Z2.5400  
G00 X-3.9700 Y12.7000 
G01 Z-0.3000 F508   
G00 Z2.5400  
G00 X-19.0500 Y34.2900 
G01 Z-0.3000 F508   
G00 Z2.5400  
G00 X-16.5100 Y34.2900 
G01 Z-0.3000 F508   
G00 Z2.5400  
G00 X-13.9700 Y34.2900 
G01 Z-0.3000 F508   
G00 Z2.5400  
G00 X-11.4300 Y34.2900 
G01 Z-0.3000 F508   
G00 Z2.5400  
G00 X-11.4300 Y26.6700 
G01 Z-0.3000 F508   
G00 Z2.5400  
G00 X-13.9700 Y26.6700 
G01 Z-0.3000 F508   
G00 Z2.5400  
G00 X-16.5100 Y26.6700 
G01 Z-0.3000 F508   
G00 Z2.5400  
G00 X-19.0500 Y26.6700 
G01 Z-0.3000 F508   
G00 Z2.5400  
G00 Z12.7000 
M05
(End of program)
