(.../pcb-gcode-3.6.2.4/pcb-gcode.ulp)
(Copyright 2005 - 2012 by John Johnson)
(See readme.txt for licensing terms.)
(This file generated from the board:)
(.../Documents/eagle/blink2/rev2.brd)
(Current profile is .../pcb-gcode-3.6.2.4/profiles/mach.pp  )
(This file generated 2015-02-26 23:30:28)
(Settings from pcb-machine.h)
(spindle on time = 3.0000)
(spindle speed = 10000.0000)
(milling depth = -1.0000)
(tool change at 0.0000  0.0000  25.4000 )
(feed rate xy = F500   )
(feed rate z  = F127   )
(Z Axis Settings)
(  High     Up        Down     Drill)
(12.7000 	2.5400  	-0.1500 	-2.0000 )
(Settings from pcb-defaults.h)
(isolate min = 0.0000)
(isolate max = 1.0000)
(isolate step = 0.5000)
(Generated bottom outlines, bottom drill, )
(Unit of measure: mm)
(Metric Mode)
G21
(Absolute Coordinates)
G90
S10000
G00 Z12.7000 
G00 X0.0000  Y0.0000  
M03
G04 P3.000000
G00 Z2.5400  
G00 X1.2700  Y7.6200  
G01 Z-1.0000 F127   
G01 X1.2700  Y39.3700 F500   
G01 X8.8900  Y46.9900 
G01 X8.8900  Y49.5300 
G01 X12.7000 Y53.3400 
G01 X15.2400 Y53.3400 
G01 X19.0500 Y49.5300 
G01 X19.0500 Y46.9900 
G01 X26.6700 Y39.3700 
G01 X26.6700 Y7.6200  
G01 X19.0500 Y0.0000  
G01 X8.8900  Y0.0000  
G01 X1.2700  Y7.6200  
G00 Z2.5400  
G00 X13.3350 Y46.9900 
G01 Z-1.0000 F127   
G01 X14.6050 Y46.9900 F500   
G01 X15.2400 Y47.6250 
G01 X15.2400 Y48.8950 
G01 X14.6050 Y49.5300 
G01 X13.3350 Y49.5300 
G01 X12.7000 Y48.8950 
G01 X12.7000 Y47.6250 
G01 X13.3350 Y46.9900 
G00 Z12.7000 
M05
(End of program)
